; generated by Slic3r 1.2.9 on 2017-05-10 at 11:50:34

; external perimeters extrusion width = 0.40mm
; perimeters extrusion width = 0.42mm
; infill extrusion width = 0.42mm
; solid infill extrusion width = 0.42mm
; top infill extrusion width = 0.42mm

M107
G28 ; home all axes
G1 Z5 F5000 ; lift nozzle

G21 ; set units to millimeters
G90 ; use absolute coordinates
M82 ; use absolute distances for extrusion
G92 E0
; layer change
G1 E-2.00000 F2400.00000
G92 E0
G1 Z0.300 F7800.000
; after layer change
G1 Z0.600 F7800.000
G1 X140.065 Y140.065 F7800.000
G1 Z0.300 F7800.000
G1 E1.80000 F2400.00000
G1 X140.523 Y139.607 E1.83895 F1800.000
G1 X141.823 Y138.545 E1.93987
G1 X142.733 Y137.958 E2.00502
G1 X144.024 Y137.268 E2.09298
G1 X144.612 Y136.990 E2.13213
G1 X145.223 Y136.771 E2.17114
G1 X146.623 Y136.346 E2.25910
G1 X147.678 Y136.119 E2.32400
G1 X147.897 Y136.093 E2.33722
G1 X149.352 Y135.950 E2.42518
G1 X150.648 Y135.950 E2.50305
G1 X152.103 Y136.093 E2.59101
G1 X152.322 Y136.119 E2.60421 F1800.000
G1 X153.377 Y136.346 E2.66913
G1 X154.777 Y136.771 E2.75708
G1 X155.389 Y136.990 E2.79615
G1 X155.976 Y137.268 E2.83524
G1 X157.267 Y137.958 E2.92320
G1 X158.175 Y138.543 E2.98816
G1 X159.477 Y139.607 E3.08928
G1 X160.393 Y140.523 E3.16715
G1 X161.457 Y141.826 E3.26828
G1 X162.042 Y142.733 E3.33322
G1 X162.732 Y144.024 E3.42118
G1 X163.009 Y144.610 E3.46017
G1 X163.229 Y145.223 E3.49934
G1 X163.654 Y146.623 E3.58730
G1 X163.882 Y147.680 E3.65232
G1 X163.907 Y147.897 E3.66542
G1 X164.050 Y149.352 E3.75338
G1 X164.050 Y150.648 E3.83125
G1 X163.882 Y152.320 E3.93229
G1 X163.654 Y153.377 E3.99733
G1 X163.229 Y154.777 E4.08528
G1 X163.011 Y155.387 E4.12422
G1 X162.732 Y155.976 E4.16344
G1 X162.042 Y157.267 E4.25140
G1 X161.457 Y158.174 E4.31634
G1 X160.393 Y159.477 E4.41748
G1 X159.477 Y160.393 E4.49535
G1 X158.346 Y161.321 E4.58331
G1 X158.175 Y161.457 E4.59646
G1 X157.267 Y162.042 E4.66142
G1 X155.976 Y162.732 E4.74938
G1 X155.390 Y163.010 E4.78841
G1 X154.777 Y163.229 E4.82754
G1 X153.377 Y163.654 E4.91550
G1 X152.321 Y163.882 E4.98043
G1 X150.648 Y164.050 E5.08158
G1 X149.352 Y164.050 E5.15945
G1 X147.678 Y163.881 E5.26061
G1 X146.623 Y163.654 E5.32552
G1 X145.223 Y163.229 E5.41348
G1 X144.611 Y163.010 E5.45255
G1 X144.024 Y162.732 E5.49164
G1 X142.733 Y162.042 E5.57960
G1 X141.825 Y161.457 E5.64456
G1 X141.654 Y161.321 E5.65772
G1 X140.523 Y160.393 E5.74568
G1 X139.607 Y159.477 E5.82355
G1 X138.542 Y158.173 E5.92478
G1 X137.958 Y157.267 E5.98962
G1 X137.268 Y155.976 E6.07758
G1 X136.989 Y155.387 E6.11681
G1 X136.771 Y154.777 E6.15574
G1 X136.346 Y153.377 E6.24370
G1 X136.119 Y152.322 E6.30861
G1 X135.950 Y150.648 E6.40978
G1 X135.950 Y149.352 E6.48765
G1 X136.118 Y147.681 E6.58863
G1 X136.346 Y146.623 E6.65372
G1 X136.771 Y145.223 E6.74168
G1 X136.990 Y144.611 E6.78074
G1 X137.268 Y144.024 E6.81984
G1 X137.958 Y142.733 E6.90780
G1 X138.541 Y141.828 E6.97259
G1 X139.607 Y140.523 E7.07388
G1 X140.023 Y140.108 E7.10919
G1 X140.442 Y140.442 F7800.000
G1 X140.863 Y140.021 E7.14498 F1800.000
G1 X142.149 Y138.970 E7.24485
G1 X142.986 Y138.430 E7.30474
G1 X144.276 Y137.740 E7.39270
G1 X144.817 Y137.485 E7.42867
G1 X145.379 Y137.284 E7.46454
G1 X146.779 Y136.859 E7.55250
G1 X147.748 Y136.650 E7.61213
G1 X147.949 Y136.626 E7.62430
G1 X149.405 Y136.483 E7.71226
G1 X150.595 Y136.483 E7.78382
G1 X152.051 Y136.626 E7.87177
G1 X152.252 Y136.650 E7.88393 F1800.000
G1 X153.221 Y136.859 E7.94358
G1 X154.621 Y137.284 E8.03153
G1 X155.184 Y137.485 E8.06744
G1 X155.724 Y137.740 E8.10337
G1 X157.014 Y138.430 E8.19133
G1 X157.849 Y138.968 E8.25103
G1 X159.137 Y140.021 E8.35109
G1 X159.979 Y140.863 E8.42265
G1 X161.032 Y142.152 E8.52273
G1 X161.570 Y142.986 E8.58241
G1 X162.260 Y144.276 E8.67036
G1 X162.514 Y144.815 E8.70619
G1 X162.716 Y145.379 E8.74220
G1 X163.141 Y146.779 E8.83016
G1 X163.351 Y147.750 E8.88991
G1 X163.374 Y147.949 E8.90196
G1 X163.517 Y149.405 E8.98992
G1 X163.517 Y150.595 E9.06148
G1 X163.351 Y152.250 E9.16148
G1 X163.141 Y153.221 E9.22124
G1 X162.716 Y154.621 E9.30919
G1 X162.516 Y155.182 E9.34497
G1 X162.260 Y155.724 E9.38104
G1 X161.570 Y157.014 E9.46899
G1 X161.032 Y157.848 E9.52867
G1 X159.979 Y159.137 E9.62875
G1 X159.137 Y159.979 E9.70031
G1 X158.006 Y160.907 E9.78827
G1 X157.849 Y161.032 E9.80037
G1 X157.014 Y161.570 E9.86007
G1 X155.724 Y162.260 E9.94803
G1 X155.185 Y162.515 E9.98389
G1 X154.621 Y162.716 E10.01987
G1 X153.221 Y163.141 E10.10782
G1 X152.252 Y163.350 E10.16749
G1 X150.595 Y163.517 E10.26758
G1 X149.405 Y163.517 E10.33914
G1 X147.748 Y163.350 E10.43925
G1 X146.779 Y163.141 E10.49890
G1 X145.379 Y162.716 E10.58686
G1 X144.816 Y162.515 E10.62277
G1 X144.276 Y162.260 E10.65870
G1 X142.986 Y161.570 E10.74666
G1 X142.151 Y161.032 E10.80635
G1 X141.994 Y160.907 E10.81846
G1 X140.863 Y159.979 E10.90642
G1 X140.021 Y159.137 E10.97797
G1 X138.967 Y157.847 E11.07815
G1 X138.430 Y157.014 E11.13773
G1 X137.740 Y155.724 E11.22569
G1 X137.484 Y155.182 E11.26175
G1 X137.284 Y154.621 E11.29753
G1 X136.859 Y153.221 E11.38549
G1 X136.650 Y152.252 E11.44514
G1 X136.483 Y150.595 E11.54525
G1 X136.483 Y149.405 E11.61681
G1 X136.649 Y147.751 E11.71673
G1 X136.859 Y146.779 E11.77656
G1 X137.284 Y145.379 E11.86452
G1 X137.485 Y144.816 E11.90043
G1 X137.740 Y144.276 E11.93636
G1 X138.430 Y142.986 E12.02432
G1 X138.966 Y142.153 E12.08386
G1 X140.021 Y140.863 E12.18408
G1 X140.399 Y140.485 E12.21624
G1 X140.819 Y140.819 F7800.000
G1 X141.203 Y140.435 E12.24887 F1800.000
G1 X142.475 Y139.395 E12.34769
G1 X143.238 Y138.902 E12.40231
G1 X144.529 Y138.213 E12.49027
G1 X145.022 Y137.980 E12.52307
G1 X145.534 Y137.796 E12.55579
G1 X146.934 Y137.372 E12.64375
G1 X147.818 Y137.181 E12.69812
G1 X148.002 Y137.159 E12.70923
G1 X149.457 Y137.016 E12.79719
G1 X150.543 Y137.016 E12.86244
G1 X151.998 Y137.159 E12.95039
G1 X152.182 Y137.181 E12.96149 F1800.000
G1 X153.066 Y137.372 E13.01588
G1 X154.466 Y137.796 E13.10383
G1 X154.979 Y137.980 E13.13660
G1 X155.471 Y138.213 E13.16936
G1 X156.762 Y138.902 E13.25731
G1 X157.522 Y139.393 E13.31174
G1 X158.797 Y140.435 E13.41075
G1 X159.565 Y141.203 E13.47600
G1 X160.607 Y142.478 E13.57503
G1 X161.098 Y143.238 E13.62944
G1 X161.787 Y144.529 E13.71740
G1 X162.020 Y145.020 E13.75006
G1 X162.204 Y145.534 E13.78292
G1 X162.628 Y146.934 E13.87087
G1 X162.820 Y147.820 E13.92535
G1 X162.841 Y148.002 E13.93636
G1 X162.984 Y149.457 E14.02432
G1 X162.984 Y150.543 E14.08956
G1 X162.820 Y152.180 E14.18852
G1 X162.628 Y153.066 E14.24300
G1 X162.204 Y154.466 E14.33096
G1 X162.021 Y154.977 E14.36358
G1 X161.787 Y155.471 E14.39648
G1 X161.098 Y156.762 E14.48444
G1 X160.607 Y157.522 E14.53885
G1 X159.565 Y158.797 E14.63788
G1 X158.797 Y159.565 E14.70313
G1 X157.667 Y160.493 E14.79108
G1 X157.522 Y160.607 E14.80214
G1 X156.762 Y161.098 E14.85657
G1 X155.471 Y161.787 E14.94452
G1 X154.980 Y162.020 E14.97723
G1 X154.466 Y162.204 E15.01004
G1 X153.066 Y162.628 E15.09800
G1 X152.182 Y162.819 E15.15240
G1 X150.543 Y162.984 E15.25144
G1 X149.457 Y162.984 E15.31669
G1 X147.818 Y162.819 E15.41574
G1 X146.934 Y162.628 E15.47013
G1 X145.534 Y162.204 E15.55809
G1 X145.021 Y162.020 E15.59085
G1 X144.528 Y161.787 E15.62361
G1 X143.238 Y161.098 E15.71156
G1 X142.478 Y160.607 E15.76599
G1 X142.333 Y160.493 E15.77705
G1 X141.203 Y159.565 E15.86501
G1 X140.435 Y158.797 E15.93025
G1 X139.392 Y157.521 E16.02936
G1 X138.902 Y156.762 E16.08369
G1 X138.213 Y155.471 E16.17165
G1 X137.979 Y154.977 E16.20455
G1 X137.796 Y154.466 E16.23717
G1 X137.372 Y153.066 E16.32513
G1 X137.181 Y152.182 E16.37952
G1 X137.016 Y150.543 E16.47857
G1 X137.016 Y149.457 E16.54382
G1 X137.180 Y147.821 E16.64269
G1 X137.372 Y146.934 E16.69726
G1 X137.796 Y145.534 E16.78521
G1 X137.980 Y145.021 E16.81797
G1 X138.213 Y144.528 E16.85073
G1 X138.902 Y143.238 E16.93869
G1 X139.392 Y142.479 E16.99298
G1 X140.435 Y141.203 E17.09213
G1 X140.776 Y140.862 E17.12113
G1 E15.12113 F2400.00000
G92 E0
G1 Z0.600 F7800.000
G1 X154.311 Y154.311 F7800.000
G1 Z0.300 F7800.000
G1 E1.80000 F2400.00000
G1 X153.387 Y155.070 E1.87191 F1800.000
G1 X152.335 Y155.632 E1.94364
G1 X151.190 Y155.980 E2.01555
G1 X150.000 Y156.097 E2.08745
G1 X148.810 Y155.980 E2.15936
G1 X147.668 Y155.633 E2.23109
G1 X146.613 Y155.070 E2.30301
G1 X145.689 Y154.311 E2.37491
G1 X144.930 Y153.387 E2.44682
G1 X144.368 Y152.335 E2.51855
G1 X144.020 Y151.190 E2.59046
G1 X143.903 Y150.000 E2.66236
G1 X144.020 Y148.810 E2.73426
G1 X144.368 Y147.665 E2.80618
G1 X144.930 Y146.613 E2.87791
G1 X145.689 Y145.689 E2.94982
G1 X146.613 Y144.930 E3.02173
G1 X147.665 Y144.368 E3.09345
G1 X148.810 Y144.020 E3.16537
G1 X150.000 Y143.903 E3.23727
G1 X151.187 Y144.020 E3.30900
G1 X152.332 Y144.367 E3.38092 F1800.000
G1 X153.387 Y144.930 E3.45282
G1 X154.311 Y145.689 E3.52472
G1 X155.070 Y146.613 E3.59663
G1 X155.632 Y147.665 E3.66836
G1 X155.980 Y148.810 E3.74027
G1 X156.097 Y150.000 E3.81217
G1 X155.980 Y151.190 E3.88408
G1 X155.633 Y152.332 E3.95581
G1 X155.070 Y153.387 E4.02773
G1 X154.349 Y154.265 E4.09602
G1 X154.725 Y154.651 F7800.000
G1 X153.686 Y155.517 E4.17739 F1800.000
G1 X152.541 Y156.130 E4.25546
G1 X151.295 Y156.508 E4.33372
G1 X150.000 Y156.635 E4.41196
G1 X148.705 Y156.508 E4.49022
G1 X147.462 Y156.131 E4.56829
G1 X146.314 Y155.517 E4.64654
G1 X145.308 Y154.692 E4.72479
G1 X144.482 Y153.686 E4.80305
G1 X143.870 Y152.541 E4.88112
G1 X143.492 Y151.295 E4.95937
G1 X143.365 Y150.000 E5.03762
G1 X143.492 Y148.705 E5.11587
G1 X143.870 Y147.459 E5.19413
G1 X144.482 Y146.314 E5.27219
G1 X145.308 Y145.308 E5.35045
G1 X146.314 Y144.483 E5.42870
G1 X147.459 Y143.870 E5.50677
G1 X148.705 Y143.492 E5.58503
G1 X150.000 Y143.365 E5.66328
G1 X151.292 Y143.492 E5.74135
G1 X152.538 Y143.869 E5.81961 F1800.000
G1 X153.686 Y144.483 E5.89786
G1 X154.692 Y145.308 E5.97610
G1 X155.517 Y146.314 E6.05436
G1 X156.130 Y147.459 E6.13243
G1 X156.508 Y148.705 E6.21068
G1 X156.635 Y150.000 E6.28893
G1 X156.508 Y151.295 E6.36719
G1 X156.131 Y152.538 E6.44525
G1 X155.517 Y153.686 E6.52351
G1 X154.763 Y154.605 E6.59498
G1 X155.139 Y154.991 F7800.000
G1 X155.072 Y155.072 E6.60133 F1800.000
G1 X153.985 Y155.965 E6.68593
G1 X152.747 Y156.627 E6.77033
G1 X151.400 Y157.036 E6.85493
G1 X150.000 Y157.174 E6.93953
G1 X148.600 Y157.036 E7.02413
G1 X147.256 Y156.628 E7.10854
G1 X146.015 Y155.965 E7.19314
G1 X144.928 Y155.072 E7.27773
G1 X144.035 Y153.985 E7.36233
G1 X143.373 Y152.747 E7.44674
G1 X142.964 Y151.400 E7.53134
G1 X142.826 Y150.000 E7.61594
G1 X142.964 Y148.600 E7.70053
G1 X143.373 Y147.253 E7.78513
G1 X144.035 Y146.015 E7.86954
G1 X144.928 Y144.928 E7.95414
G1 X146.015 Y144.035 E8.03874
G1 X147.253 Y143.373 E8.12314
G1 X148.600 Y142.964 E8.20774
G1 X150.000 Y142.826 E8.29234
G1 X151.397 Y142.964 E8.37675
G1 X152.744 Y143.372 E8.46135 F1800.000
G1 X153.985 Y144.035 E8.54595
G1 X155.072 Y144.928 E8.63054
G1 X155.965 Y146.015 E8.71514
G1 X156.627 Y147.253 E8.79955
G1 X157.036 Y148.600 E8.88415
G1 X157.174 Y150.000 E8.96875
G1 X157.036 Y151.400 E9.05334
G1 X156.628 Y152.744 E9.13775
G1 X155.965 Y153.985 E9.22235
G1 X155.178 Y154.944 E9.29699
G1 X155.035 Y154.974 F7800.000
G1 X154.246 Y146.270 F7800.000
G1 X153.730 Y145.754 E9.34095 F1800.000
G1 X151.796 Y144.580 F7800.000
G1 X155.420 Y148.204 E9.64998 F1800.000
G1 X155.686 Y149.230 E9.71387
G1 X150.770 Y144.314 E10.13305
G1 X149.928 Y144.231 E10.18409
G1 X155.769 Y150.072 E10.68219
G1 X155.709 Y150.771 E10.72449
G1 X149.229 Y144.291 E11.27699
G1 X148.576 Y144.398 E11.31688
G1 X155.602 Y151.424 E11.91599
G1 X155.425 Y152.007 E11.95271
G1 X147.993 Y144.575 E12.58642
G1 X147.457 Y144.798 E12.62144
G1 X155.202 Y152.543 E13.28180
G1 X154.937 Y153.038 E13.31564
G1 X146.962 Y145.063 E13.99566
G1 X146.510 Y145.371 E14.02862
G1 X154.629 Y153.490 E14.72089
G1 X154.287 Y153.907 E14.75343
G1 X146.093 Y145.713 E15.45209
G1 X145.713 Y146.093 E15.48448
G1 X153.907 Y154.287 E16.18314
G1 X153.490 Y154.629 E16.21568
G1 X145.371 Y146.510 E16.90796
G1 X145.063 Y146.962 E16.94091
G1 X153.038 Y154.937 E17.62093
G1 X152.543 Y155.202 E17.65477
G1 X144.798 Y147.457 E18.31515
G1 X144.575 Y147.993 E18.35017
G1 X152.007 Y155.425 E18.98386
G1 X151.424 Y155.602 E19.02058
G1 X144.398 Y148.576 E19.61968
G1 X144.291 Y149.229 E19.65957
G1 X150.771 Y155.709 E20.21207
G1 X150.072 Y155.769 E20.25437
G1 X144.231 Y149.928 E20.75246
G1 X144.314 Y150.770 E20.80351
G1 X149.230 Y155.686 E21.22268
G1 X148.204 Y155.420 E21.28655
G1 X144.580 Y151.796 E21.59559
G1 X145.754 Y153.730 F7800.000
G1 X146.270 Y154.246 E21.63954 F1800.000
; layer change
G1 E19.63954 F2400.00000
G92 E0
G1 Z0.600 F7800.000
G1 Z0.700 F7800.000
; after layer change
G1 X154.663 Y154.600 F7800.000
G1 E1.80000 F2400.00000
G1 X153.639 Y155.451 E1.86657 F3000.000
G1 X152.503 Y156.057 E1.93097
G1 X151.281 Y156.428 E1.99484
G1 X150.000 Y156.554 E2.05923
G1 X148.719 Y156.428 E2.12362
G1 X147.497 Y156.057 E2.18749
G1 X146.361 Y155.451 E2.25189
G1 X145.365 Y154.634 E2.31627
G1 X144.549 Y153.639 E2.38066
G1 X143.947 Y152.513 E2.44453
G1 X143.572 Y151.281 E2.50893
G1 X143.446 Y150.000 E2.57330
G1 X143.572 Y148.719 E2.63769
G1 X143.943 Y147.497 E2.70156
G1 X144.549 Y146.361 E2.76596
G1 X145.365 Y145.366 E2.83034
G1 X146.361 Y144.549 E2.89471
G1 X147.497 Y143.943 E2.95911
G1 X148.719 Y143.572 E3.02298
G1 X150.000 Y143.446 E3.08738
G1 X151.271 Y143.571 E3.15125
G1 X152.504 Y143.943 E3.21565 F3000.000
G1 X153.639 Y144.549 E3.28002
G1 X154.635 Y145.366 E3.34440
G1 X155.451 Y146.361 E3.40877
G1 X156.057 Y147.497 E3.47317
G1 X156.428 Y148.719 E3.53704
G1 X156.554 Y150.000 E3.60143
G1 X156.428 Y151.281 E3.66582
G1 X156.057 Y152.503 E3.72970
G1 X155.451 Y153.639 E3.79409
G1 X154.701 Y154.554 E3.85323
G1 X154.921 Y154.812 F7800.000
G1 X154.872 Y154.872 E3.85712 F3000.000
G1 X153.826 Y155.730 E3.92479
G1 X152.632 Y156.367 E3.99248
G1 X151.347 Y156.757 E4.05964
G1 X150.000 Y156.890 E4.12732
G1 X148.653 Y156.757 E4.19501
G1 X147.368 Y156.367 E4.26216
G1 X146.174 Y155.730 E4.32985
G1 X145.128 Y154.872 E4.39752
G1 X144.270 Y153.826 E4.46521
G1 X143.637 Y152.641 E4.53237
G1 X143.243 Y151.347 E4.60005
G1 X143.110 Y150.000 E4.66773
G1 X143.243 Y148.653 E4.73541
G1 X143.633 Y147.368 E4.80257
G1 X144.270 Y146.174 E4.87026
G1 X145.128 Y145.128 E4.93793
G1 X146.174 Y144.270 E5.00561
G1 X147.368 Y143.633 E5.07329
G1 X148.653 Y143.243 E5.14045
G1 X150.000 Y143.110 E5.20814
G1 X151.336 Y143.242 E5.27529
G1 X152.632 Y143.633 E5.34298 F3000.000
G1 X153.826 Y144.270 E5.41066
G1 X154.872 Y145.128 E5.47833
G1 X155.730 Y146.174 E5.54601
G1 X156.367 Y147.368 E5.61369
G1 X156.757 Y148.653 E5.68085
G1 X156.890 Y150.000 E5.74853
G1 X156.757 Y151.347 E5.81622
G1 X156.367 Y152.632 E5.88337
G1 X155.730 Y153.826 E5.95106
G1 X154.959 Y154.765 E6.01185
G1 X155.172 Y155.017 F7800.000
G1 X155.102 Y155.102 E6.01701 F1500.000
G1 X154.007 Y156.001 E6.08364
G1 X152.756 Y156.668 E6.15028
G1 X151.410 Y157.076 E6.21641
G1 X150.000 Y157.216 E6.28305
G1 X148.590 Y157.076 E6.34969
G1 X147.244 Y156.668 E6.41582
G1 X145.993 Y156.001 E6.48246
G1 X144.898 Y155.102 E6.54909
G1 X143.999 Y154.007 E6.61573
G1 X143.336 Y152.766 E6.68186
G1 X142.924 Y151.410 E6.74850
G1 X142.784 Y150.000 E6.81513
G1 X142.924 Y148.590 E6.88177
G1 X143.332 Y147.244 E6.94790
G1 X143.999 Y145.993 E7.01454
G1 X144.898 Y144.898 E7.08117
G1 X145.993 Y143.999 E7.14781
G1 X147.244 Y143.332 E7.21444
G1 X148.590 Y142.924 E7.28058
G1 X150.000 Y142.784 E7.34721
G1 X151.400 Y142.922 E7.41335
G1 X152.756 Y143.332 E7.47998 F1500.000
G1 X154.007 Y143.999 E7.54661
G1 X155.102 Y144.898 E7.61325
G1 X156.001 Y145.993 E7.67988
G1 X156.668 Y147.244 E7.74652
G1 X157.076 Y148.590 E7.81265
G1 X157.216 Y150.000 E7.87929
G1 X157.076 Y151.410 E7.94593
G1 X156.668 Y152.756 E8.01206
G1 X156.001 Y154.007 E8.07870
G1 X155.210 Y154.971 E8.13735
G1 X155.064 Y155.000 F7800.000
G1 X154.648 Y154.218 F7800.000
G1 X154.218 Y154.647 E8.16816 F1200.000
G1 X152.701 Y155.685 F7800.000
G1 X155.685 Y152.701 E8.38223 F1200.000
G1 X151.891 Y156.016 F7800.000
G1 X156.016 Y151.891 E8.67813 F1200.000
G1 X156.225 Y151.203 E8.71459
G1 X151.203 Y156.225 E9.07480
G1 X150.661 Y156.287 E9.10245
