; generated by Slic3r 1.2.9 on 2017-05-10 at 18:15:55

; external perimeters extrusion width = 0.40mm
; perimeters extrusion width = 0.67mm
; infill extrusion width = 0.67mm
; solid infill extrusion width = 0.67mm
; top infill extrusion width = 0.67mm

M107
G28 ; home all axes
G1 Z5 F5000 ; lift nozzle

G21 ; set units to millimeters
G90 ; use absolute coordinates
M82 ; use absolute distances for extrusion
G92 E0
; layer change
G1 E-2.00000 F2400.00000
G92 E0
G1 Z0.300 F7800.000
; after layer change
G1 X140.176 Y140.177 F7800.000
G1 Z0.270 F7800.000
G1 E1.80000 F2400.00000
G1 X140.623 Y139.730 E1.83078 F1800.000
G1 X141.919 Y138.670 E1.91230
G1 X142.808 Y138.097 E1.96379
G1 X144.098 Y137.407 E2.03507
G1 X144.673 Y137.136 E2.06599
G1 X145.269 Y136.923 E2.09683
G1 X146.669 Y136.498 E2.16811
G1 X147.700 Y136.275 E2.21944
G1 X147.912 Y136.251 E2.22983
G1 X149.368 Y136.107 E2.30112
G1 X150.632 Y136.107 E2.36266
G1 X152.088 Y136.251 E2.43394
G1 X152.300 Y136.275 E2.44433 F1800.000
G1 X153.331 Y136.498 E2.49567
G1 X154.731 Y136.923 E2.56695
G1 X155.327 Y137.136 E2.59776
G1 X155.902 Y137.407 E2.62871
G1 X157.192 Y138.097 E2.69999
G1 X158.078 Y138.668 E2.75131
G1 X159.377 Y139.730 E2.83299
G1 X160.270 Y140.623 E2.89453
G1 X161.331 Y141.921 E2.97614
G1 X161.903 Y142.808 E3.02754
G1 X162.593 Y144.098 E3.09882
G1 X162.865 Y144.674 E3.12980
G1 X163.077 Y145.269 E3.16058
G1 X163.502 Y146.669 E3.23186
G1 X163.725 Y147.700 E3.28321
G1 X163.749 Y147.912 E3.29359
G1 X163.893 Y149.368 E3.36487
G1 X163.893 Y150.632 E3.42641
G1 X163.725 Y152.302 E3.50817
G1 X163.502 Y153.331 E3.55942
G1 X163.077 Y154.731 E3.63070
G1 X162.865 Y155.326 E3.66143
G1 X162.593 Y155.902 E3.69246
G1 X161.903 Y157.192 E3.76374
G1 X161.331 Y158.078 E3.81508
G1 X160.270 Y159.377 E3.89674
G1 X159.377 Y160.270 E3.95829
G1 X158.245 Y161.199 E4.02957
G1 X158.078 Y161.332 E4.03999
G1 X157.192 Y161.903 E4.09129
G1 X155.902 Y162.593 E4.16258
G1 X155.329 Y162.863 E4.19342
G1 X154.731 Y163.077 E4.22433
G1 X153.331 Y163.502 E4.29562
G1 X152.302 Y163.725 E4.34687
G1 X150.632 Y163.893 E4.42862
G1 X149.368 Y163.893 E4.49016
G1 X147.698 Y163.724 E4.57193
G1 X146.669 Y163.502 E4.62317
G1 X145.269 Y163.077 E4.69445
G1 X144.671 Y162.863 E4.72537
G1 X144.098 Y162.593 E4.75621
G1 X142.808 Y161.903 E4.82749
G1 X141.923 Y161.332 E4.87875
G1 X141.755 Y161.199 E4.88922
G1 X140.623 Y160.270 E4.96050
G1 X139.730 Y159.377 E5.02204
G1 X138.669 Y158.078 E5.10371
G1 X138.097 Y157.192 E5.15505
G1 X137.407 Y155.902 E5.22633
G1 X137.136 Y155.327 E5.25726
G1 X136.923 Y154.731 E5.28809
G1 X136.498 Y153.331 E5.35937
G1 X136.275 Y152.302 E5.41063
G1 X136.107 Y150.632 E5.49237
G1 X136.107 Y149.368 E5.55392
G1 X136.275 Y147.701 E5.63552
G1 X136.498 Y146.669 E5.68692
G1 X136.923 Y145.269 E5.75820
G1 X137.136 Y144.673 E5.78899
G1 X137.407 Y144.098 E5.81996
G1 X138.097 Y142.808 E5.89124
G1 X138.668 Y141.922 E5.94255
G1 X139.730 Y140.623 E6.02425
G1 X140.134 Y140.219 E6.05209
G1 X140.515 Y140.516 F7800.000
G1 X140.929 Y140.102 E6.08057 F1800.000
G1 X142.213 Y139.053 E6.16133
G1 X143.035 Y138.522 E6.20897
G1 X144.326 Y137.832 E6.28025
G1 X144.857 Y137.581 E6.30886
G1 X145.409 Y137.384 E6.33740
G1 X146.809 Y136.959 E6.40868
G1 X147.763 Y136.753 E6.45618
G1 X147.959 Y136.731 E6.46580
G1 X149.415 Y136.587 E6.53708
G1 X150.585 Y136.587 E6.59402
G1 X152.041 Y136.731 E6.66531
G1 X152.237 Y136.753 E6.67493 F1800.000
G1 X153.191 Y136.959 E6.72243
G1 X154.591 Y137.384 E6.79371
G1 X155.143 Y137.581 E6.82223
G1 X155.674 Y137.832 E6.85086
G1 X156.965 Y138.522 E6.92214
G1 X157.785 Y139.051 E6.96962
G1 X159.071 Y140.102 E7.05054
G1 X159.898 Y140.929 E7.10748
G1 X160.948 Y142.214 E7.18832
G1 X161.478 Y143.035 E7.23588
G1 X162.168 Y144.326 E7.30716
G1 X162.419 Y144.858 E7.33583
G1 X162.616 Y145.409 E7.36431
G1 X163.041 Y146.809 E7.43559
G1 X163.247 Y147.763 E7.48310
G1 X163.269 Y147.959 E7.49272
G1 X163.413 Y149.415 E7.56400
G1 X163.413 Y150.585 E7.62094
G1 X163.247 Y152.239 E7.70193
G1 X163.041 Y153.191 E7.74934
G1 X162.616 Y154.591 E7.82062
G1 X162.419 Y155.141 E7.84905
G1 X162.168 Y155.674 E7.87777
G1 X161.478 Y156.965 E7.94905
G1 X160.949 Y157.785 E7.99655
G1 X159.898 Y159.071 E8.07745
G1 X159.071 Y159.898 E8.13439
G1 X157.940 Y160.826 E8.20567
G1 X157.784 Y160.949 E8.21533
G1 X156.965 Y161.478 E8.26279
G1 X155.674 Y162.168 E8.33407
G1 X155.145 Y162.418 E8.36261
G1 X154.591 Y162.616 E8.39123
G1 X153.191 Y163.041 E8.46251
G1 X152.239 Y163.247 E8.50993
G1 X150.585 Y163.413 E8.59091
G1 X149.415 Y163.413 E8.64785
G1 X147.761 Y163.247 E8.72884
G1 X146.809 Y163.041 E8.77625
G1 X145.409 Y162.616 E8.84753
G1 X144.858 Y162.419 E8.87600
G1 X144.326 Y162.168 E8.90468
G1 X143.035 Y161.478 E8.97596
G1 X142.216 Y160.950 E9.02339
G1 X142.060 Y160.826 E9.03308
G1 X140.929 Y159.898 E9.10437
G1 X140.102 Y159.071 E9.16130
G1 X139.051 Y157.785 E9.24220
G1 X138.522 Y156.965 E9.28971
G1 X137.832 Y155.674 E9.36099
G1 X137.581 Y155.143 E9.38961
G1 X137.384 Y154.591 E9.41814
G1 X136.959 Y153.191 E9.48942
G1 X136.753 Y152.239 E9.53684
G1 X136.587 Y150.585 E9.61782
G1 X136.587 Y149.415 E9.67476
G1 X136.753 Y147.764 E9.75559
G1 X136.959 Y146.809 E9.80316
G1 X137.384 Y145.409 E9.87444
G1 X137.581 Y144.858 E9.90293
G1 X137.832 Y144.326 E9.93159
G1 X138.522 Y143.035 E10.00287
G1 X139.051 Y142.216 E10.05034
G1 X140.102 Y140.929 E10.13128
G1 X140.473 Y140.558 E10.15681
G1 X140.855 Y140.855 F7800.000
G1 X141.235 Y140.475 E10.18299 F1800.000
G1 X142.506 Y139.435 E10.26298
G1 X143.262 Y138.948 E10.30679
G1 X144.553 Y138.258 E10.37807
G1 X145.041 Y138.027 E10.40437
G1 X145.549 Y137.845 E10.43061
G1 X146.949 Y137.420 E10.50189
G1 X147.825 Y137.231 E10.54555
G1 X148.006 Y137.210 E10.55441
G1 X149.463 Y137.067 E10.62569
G1 X150.537 Y137.067 E10.67803
G1 X151.994 Y137.210 E10.74931
G1 X152.175 Y137.231 E10.75817 F1800.000
G1 X153.051 Y137.420 E10.80182
G1 X154.451 Y137.845 E10.87310
G1 X154.959 Y138.027 E10.89933
G1 X155.447 Y138.258 E10.92565
G1 X156.738 Y138.948 E10.99693
G1 X157.491 Y139.433 E11.04057
G1 X158.765 Y140.475 E11.12072
G1 X159.525 Y141.235 E11.17306
G1 X160.566 Y142.508 E11.25314
G1 X161.052 Y143.262 E11.29686
G1 X161.742 Y144.553 E11.36814
G1 X161.974 Y145.042 E11.39449
G1 X162.155 Y145.549 E11.42068
G1 X162.580 Y146.949 E11.49196
G1 X162.769 Y147.826 E11.53563
G1 X162.790 Y148.006 E11.54448
G1 X162.933 Y149.463 E11.61576
G1 X162.933 Y150.537 E11.66810
G1 X162.769 Y152.176 E11.74831
G1 X162.580 Y153.051 E11.79189
G1 X162.155 Y154.451 E11.86317
G1 X161.974 Y154.957 E11.88931
G1 X161.742 Y155.447 E11.91572
G1 X161.052 Y156.738 E11.98700
G1 X160.567 Y157.491 E12.03066
G1 X159.525 Y158.765 E12.11079
G1 X158.765 Y159.525 E12.16313
G1 X157.634 Y160.454 E12.23441
G1 X157.491 Y160.567 E12.24330
G1 X156.738 Y161.052 E12.28693
G1 X155.447 Y161.742 E12.35821
G1 X154.960 Y161.973 E12.38444
G1 X154.451 Y162.155 E12.41075
G1 X153.051 Y162.580 E12.48203
G1 X152.176 Y162.769 E12.52563
G1 X150.537 Y162.933 E12.60583
G1 X149.463 Y162.933 E12.65817
G1 X147.824 Y162.769 E12.73838
G1 X146.949 Y162.580 E12.78196
G1 X145.549 Y162.155 E12.85324
G1 X145.040 Y161.973 E12.87956
G1 X144.553 Y161.742 E12.90579
G1 X143.262 Y161.052 E12.97707
G1 X142.510 Y160.567 E13.02066
G1 X142.366 Y160.454 E13.02959
G1 X141.235 Y159.525 E13.10087
G1 X140.475 Y158.765 E13.15320
G1 X139.433 Y157.491 E13.23334
G1 X138.948 Y156.738 E13.27700
G1 X138.258 Y155.447 E13.34828
G1 X138.027 Y154.958 E13.37460
G1 X137.845 Y154.451 E13.40082
G1 X137.420 Y153.051 E13.47210
G1 X137.231 Y152.176 E13.51570
G1 X137.067 Y150.537 E13.59590
G1 X137.067 Y149.463 E13.64824
G1 X137.231 Y147.827 E13.72830
G1 X137.420 Y146.949 E13.77203
G1 X137.845 Y145.549 E13.84331
G1 X138.026 Y145.042 E13.86950
G1 X138.258 Y144.553 E13.89586
G1 X138.948 Y143.262 E13.96714
G1 X139.433 Y142.509 E14.01077
G1 X140.475 Y141.235 E14.09094
G1 X140.812 Y140.897 E14.11417
G1 E12.11417 F2400.00000
G92 E0
G1 Z0.570 F7800.000
G1 X154.411 Y154.410 F7800.000
G1 Z0.270 F7800.000
G1 E1.80000 F2400.00000
G1 X153.465 Y155.187 E1.85958 F1800.000
G1 X152.388 Y155.762 E1.91903
G1 X151.217 Y156.117 E1.97862
G1 X150.000 Y156.237 E2.03820
G1 X148.782 Y156.117 E2.09778
G1 X147.614 Y155.763 E2.15723
G1 X146.535 Y155.186 E2.21681
G1 X145.589 Y154.410 E2.27639
G1 X144.813 Y153.465 E2.33597
G1 X144.238 Y152.388 E2.39542
G1 X143.883 Y151.217 E2.45501
G1 X143.763 Y150.000 E2.51459
G1 X143.883 Y148.782 E2.57417
G1 X144.237 Y147.614 E2.63362
G1 X144.813 Y146.535 E2.69320
G1 X145.589 Y145.589 E2.75278
G1 X146.535 Y144.813 E2.81236
G1 X147.612 Y144.238 E2.87181
G1 X148.783 Y143.883 E2.93140
G1 X150.000 Y143.763 E2.99098
G1 X151.215 Y143.882 E3.05042
G1 X152.388 Y144.238 E3.11015 F1800.000
G1 X153.465 Y144.813 E3.16959
G1 X154.411 Y145.589 E3.22917
G1 X155.187 Y146.535 E3.28875
G1 X155.762 Y147.612 E3.34820
G1 X156.117 Y148.783 E3.40779
G1 X156.237 Y150.000 E3.46736
G1 X156.117 Y151.217 E3.52694
G1 X155.762 Y152.388 E3.58653
G1 X155.187 Y153.465 E3.64598
G1 X154.449 Y154.364 E3.70264
G1 X154.716 Y154.783 F7800.000
G1 X153.734 Y155.589 E3.76453 F1800.000
G1 X152.574 Y156.210 E3.82860
G1 X151.312 Y156.592 E3.89281
G1 X150.000 Y156.722 E3.95702
G1 X148.688 Y156.592 E4.02122
G1 X147.429 Y156.211 E4.08530
G1 X146.266 Y155.589 E4.14951
G1 X145.247 Y154.753 E4.21371
G1 X144.411 Y153.734 E4.27792
G1 X143.790 Y152.574 E4.34199
G1 X143.408 Y151.312 E4.40620
G1 X143.278 Y150.000 E4.47040
G1 X143.408 Y148.688 E4.53461
G1 X143.789 Y147.429 E4.59868
G1 X144.411 Y146.266 E4.66289
G1 X145.247 Y145.247 E4.72710
G1 X146.266 Y144.411 E4.79130
G1 X147.426 Y143.790 E4.85537
G1 X148.688 Y143.408 E4.91958
G1 X150.000 Y143.278 E4.98379
G1 X151.309 Y143.407 E5.04786
G1 X152.574 Y143.791 E5.11221 F1800.000
G1 X153.734 Y144.411 E5.17627
G1 X154.753 Y145.247 E5.24048
G1 X155.589 Y146.266 E5.30469
G1 X156.210 Y147.426 E5.36876
G1 X156.592 Y148.688 E5.43297
G1 X156.722 Y150.000 E5.49717
G1 X156.592 Y151.312 E5.56138
G1 X156.210 Y152.574 E5.62559
G1 X155.589 Y153.734 E5.68966
G1 X154.761 Y154.743 E5.75326
G1 X155.022 Y155.156 F7800.000
G1 X154.003 Y155.992 E5.81746 F1800.000
G1 X152.759 Y156.657 E5.88616
G1 X151.407 Y157.068 E5.95499
G1 X150.000 Y157.206 E6.02382
G1 X148.593 Y157.068 E6.09265
G1 X147.244 Y156.658 E6.16135
G1 X145.997 Y155.992 E6.23018
G1 X144.904 Y155.096 E6.29901
G1 X144.008 Y154.003 E6.36785
G1 X143.343 Y152.759 E6.43654
G1 X142.932 Y151.407 E6.50537
G1 X142.794 Y150.000 E6.57420
G1 X142.932 Y148.593 E6.64304
G1 X143.342 Y147.244 E6.71173
G1 X144.008 Y145.997 E6.78056
G1 X144.904 Y144.904 E6.84939
G1 X145.997 Y144.008 E6.91823
G1 X147.241 Y143.343 E6.98692
G1 X148.593 Y142.932 E7.05575
G1 X150.000 Y142.794 E7.12459
G1 X151.404 Y142.932 E7.19328
G1 X152.759 Y143.343 E7.26225 F1800.000
G1 X154.003 Y144.008 E7.33094
G1 X155.096 Y144.904 E7.39978
G1 X155.992 Y145.997 E7.46861
G1 X156.657 Y147.241 E7.53730
G1 X157.068 Y148.593 E7.60614
G1 X157.206 Y150.000 E7.67497
G1 X157.068 Y151.407 E7.74380
G1 X156.657 Y152.759 E7.81263
G1 X155.992 Y154.003 E7.88132
G1 X155.068 Y155.118 E7.95183
G1 X154.640 Y155.038 F7800.000
G1 X147.988 Y155.540 F7800.000
G1 X144.460 Y152.012 E8.19656 F1800.000
G1 X144.163 Y151.029 E8.24692
G1 X148.971 Y155.837 E8.58037
G1 X149.733 Y155.912 E8.61791
G1 X144.088 Y150.267 E9.00940
G1 X144.084 Y149.576 E9.04330
G1 X150.424 Y155.916 E9.48307
G1 X151.049 Y155.855 E9.51387
G1 X144.145 Y148.951 E9.99272
G1 X144.274 Y148.394 E10.02078
G1 X151.606 Y155.725 E10.52931
G1 X152.133 Y155.566 E10.55631
G1 X144.434 Y147.867 E11.09029
G1 X144.642 Y147.389 E11.11588
G1 X152.611 Y155.358 E11.66862
G1 X153.059 Y155.119 E11.69350
G1 X144.882 Y146.941 E12.26070
G1 X145.145 Y146.518 E12.28514
G1 X153.482 Y154.855 E12.86337
G1 X153.859 Y154.545 E12.88729
G1 X145.455 Y146.141 E13.47021
G1 X145.778 Y145.778 E13.49406
G1 X154.222 Y154.222 E14.07971
G1 X154.545 Y153.859 E14.10356
G1 X146.141 Y145.455 E14.68648
G1 X146.518 Y145.145 E14.71040
G1 X154.855 Y153.482 E15.28863
G1 X155.119 Y153.059 E15.31307
G1 X146.941 Y144.881 E15.88027
G1 X147.389 Y144.642 E15.90515
G1 X155.358 Y152.611 E16.45791
G1 X155.566 Y152.133 E16.48350
G1 X147.867 Y144.434 E17.01747
G1 X148.394 Y144.275 E17.04447
G1 X155.725 Y151.606 E17.55300
G1 X155.855 Y151.049 E17.58106
G1 X148.951 Y144.145 E18.05990
G1 X149.576 Y144.084 E18.09070
G1 X155.916 Y150.424 E18.53047
G1 X155.912 Y149.733 E18.56438
G1 X150.267 Y144.088 E18.95587
G1 X151.029 Y144.163 E18.99340
G1 X155.837 Y148.971 E19.32686
G1 X155.540 Y147.988 E19.37722
G1 X152.012 Y144.460 E19.62192
G1 X153.873 Y145.634 F7800.000
G1 X154.366 Y146.127 E19.65611 F1800.000
G1 X146.127 Y154.366 F7800.000
G1 X145.634 Y153.873 E19.69028 F1800.000
; layer change
G1 E17.69028 F2400.00000
G92 E0
G1 Z0.570 F7800.000
; after layer change
G1 X154.321 Y154.321 F7800.000
G1 Z0.470 F7800.000
G1 E1.80000 F2400.00000
G1 X153.394 Y155.082 E1.85640 F900.000
G1 X152.335 Y155.647 E1.91283
G1 X151.194 Y155.993 E1.96889
G1 X150.000 Y156.111 E2.02531
G1 X148.806 Y155.993 E2.08173
G1 X147.665 Y155.647 E2.13779
G1 X146.606 Y155.082 E2.19422
G1 X145.679 Y154.321 E2.25062
G1 X144.918 Y153.393 E2.30703
G1 X144.356 Y152.342 E2.36310
G1 X144.007 Y151.194 E2.41953
G1 X143.889 Y150.000 E2.47593
G1 X144.007 Y148.806 E2.53234
G1 X144.353 Y147.665 E2.58841
G1 X144.918 Y146.606 E2.64484
G1 X145.679 Y145.679 E2.70123
G1 X146.607 Y144.918 E2.75765
G1 X147.658 Y144.356 E2.81372
G1 X148.806 Y144.007 E2.87014
G1 X150.000 Y143.889 E2.92655
G1 X151.187 Y144.006 E2.98262
G1 X152.336 Y144.353 E3.03905 F900.000
G1 X153.394 Y144.918 E3.09545
G1 X154.321 Y145.679 E3.15185
G1 X155.082 Y146.607 E3.20826
G1 X155.644 Y147.658 E3.26433
G1 X155.993 Y148.806 E3.32076
G1 X156.111 Y150.000 E3.37716
G1 X155.993 Y151.194 E3.43357
G1 X155.647 Y152.335 E3.48964
G1 X155.082 Y153.394 E3.54606
G1 X154.359 Y154.275 E3.59964
G1 X154.807 Y154.720 F7800.000
G1 X153.744 Y155.607 E3.66473 F3000.000
G1 X152.577 Y156.230 E3.72698
G1 X151.317 Y156.612 E3.78885
G1 X150.000 Y156.742 E3.85109
G1 X148.683 Y156.612 E3.91333
G1 X147.423 Y156.230 E3.97521
G1 X146.256 Y155.607 E4.03745
G1 X145.232 Y154.767 E4.09968
G1 X144.393 Y153.744 E4.16192
G1 X143.773 Y152.584 E4.22379
G1 X143.388 Y151.317 E4.28604
G1 X143.258 Y150.000 E4.34827
G1 X143.388 Y148.683 E4.41051
G1 X143.770 Y147.423 E4.47238
G1 X144.393 Y146.256 E4.53462
G1 X145.232 Y145.233 E4.59685
G1 X146.256 Y144.393 E4.65909
G1 X147.416 Y143.773 E4.72097
G1 X148.683 Y143.388 E4.78321
G1 X150.000 Y143.258 E4.84544
G1 X151.310 Y143.387 E4.90732
G1 X152.577 Y143.770 E4.96956 F3000.000
G1 X153.744 Y144.393 E5.03179
G1 X154.768 Y145.233 E5.09402
G1 X155.607 Y146.256 E5.15626
G1 X156.227 Y147.416 E5.21814
G1 X156.612 Y148.683 E5.28038
G1 X156.742 Y150.000 E5.34261
G1 X156.612 Y151.317 E5.40485
G1 X156.230 Y152.577 E5.46672
G1 X155.607 Y153.744 E5.52897
G1 X154.845 Y154.673 E5.58546
G1 X155.188 Y155.032 F7800.000
G1 X155.118 Y155.118 E5.58842 F1500.000
G1 X154.019 Y156.019 E5.62638
G1 X152.766 Y156.688 E5.66435
G1 X151.414 Y157.098 E5.70210
G1 X150.000 Y157.237 E5.74006
G1 X148.586 Y157.098 E5.77803
G1 X147.234 Y156.688 E5.81578
G1 X145.981 Y156.019 E5.85375
G1 X144.882 Y155.118 E5.89171
G1 X143.981 Y154.019 E5.92968
G1 X143.315 Y152.773 E5.96743
G1 X142.902 Y151.414 E6.00540
G1 X142.763 Y150.000 E6.04336
G1 X142.902 Y148.586 E6.08133
G1 X143.312 Y147.234 E6.11908
G1 X143.981 Y145.981 E6.15705
G1 X144.882 Y144.882 E6.19501
G1 X145.981 Y143.981 E6.23298
G1 X147.227 Y143.315 E6.27073
G1 X148.586 Y142.902 E6.30869
G1 X150.000 Y142.763 E6.34666
G1 X151.406 Y142.901 E6.38441
G1 X152.766 Y143.312 E6.42238 F1500.000
G1 X154.019 Y143.981 E6.46034
G1 X155.118 Y144.882 E6.49830
G1 X156.019 Y145.981 E6.53627
G1 X156.685 Y147.227 E6.57402
G1 X157.098 Y148.586 E6.61199
G1 X157.237 Y150.000 E6.64995
G1 X157.098 Y151.414 E6.68792
G1 X156.688 Y152.766 E6.72567
G1 X156.019 Y154.019 E6.76364
G1 X155.226 Y154.986 E6.79704
G1 X155.079 Y155.014 F7800.000
G1 X154.219 Y153.664 F7800.000
G1 X153.664 Y154.219 E6.83554 F1200.000
G1 X155.456 Y151.500 F7800.000
G1 X151.500 Y155.456 E7.11012 F1200.000
G1 X150.348 Y155.680 E7.16769
G1 X155.680 Y150.348 E7.53776
G1 X155.683 Y149.418 E7.58343
