; generated by Slic3r 1.2.9 on 2017-01-30 at 19:18:58

; external perimeters extrusion width = 0.40mm
; perimeters extrusion width = 0.48mm
; infill extrusion width = 0.48mm
; solid infill extrusion width = 0.48mm
; top infill extrusion width = 0.48mm

M107
G28 ; home all axes
G1 Z5 F5000 ; lift nozzle

G21 ; set units to millimeters
G90 ; use absolute coordinates
M82 ; use absolute distances for extrusion
G92 E0
; layer change
G1 E-2.00000 F2400.00000
G92 E0
G1 Z0.300 F7800.000
; after layer change
G1 Z0.600 F7800.000
G1 X137.433 Y138.488 F7800.000
G1 Z0.300 F7800.000
G1 E1.80000 F2400.00000
G1 X139.186 Y137.013 E1.93770 F1800.000
G1 X141.336 Y136.225 E2.07541
G1 X142.628 Y136.122 E2.15333
G1 X154.658 Y136.124 E2.87662 F1800.000
G1 X156.914 Y136.522 E3.01432
G1 X158.898 Y137.665 E3.15203
G1 X160.373 Y139.418 E3.28973
G1 X161.093 Y141.240 E3.40752
G1 X163.940 Y153.522 E4.16558
G1 X164.110 Y155.015 E4.25592
G1 X164.110 Y157.272 E4.39162
G1 X163.713 Y159.528 E4.52933
G1 X162.569 Y161.512 E4.66703
G1 X160.817 Y162.987 E4.80474
G1 X158.666 Y163.775 E4.94244
G1 X157.502 Y163.878 E5.01272
G1 X142.495 Y163.875 E5.91499
G1 X140.240 Y163.478 E6.05269
G1 X138.255 Y162.334 E6.19039
G1 X136.781 Y160.582 E6.32810
G1 X135.993 Y158.431 E6.46580
G1 X135.890 Y157.267 E6.53607
G1 X135.892 Y142.728 E7.41024
G1 X136.290 Y140.472 E7.54794
G1 X137.403 Y138.540 E7.68204
G1 X137.912 Y138.778 F7800.000
G1 X137.964 Y138.693 E7.68804 F1800.000
G1 X139.695 Y137.344 E7.82000
G1 X142.500 Y136.658 E7.99363
G1 X142.628 Y136.658 E8.00132
G1 X154.658 Y136.660 E8.72461 F1800.000
G1 X156.816 Y137.057 E8.85657
G1 X158.693 Y138.196 E8.98853
G1 X160.042 Y139.927 E9.12049
G1 X160.571 Y141.361 E9.21237
G1 X163.418 Y153.643 E9.97043
G1 X163.575 Y155.015 E10.05344
G1 X163.574 Y157.272 E10.18914
G1 X163.177 Y159.430 E10.32110
G1 X162.039 Y161.307 E10.45306
G1 X160.307 Y162.656 E10.58502
G1 X157.502 Y163.342 E10.75867
G1 X142.495 Y163.339 E11.66094
G1 X140.337 Y162.942 E11.79290
G1 X138.461 Y161.804 E11.92486
G1 X137.112 Y160.072 E12.05682
G1 X136.425 Y157.267 E12.23046
G1 X136.428 Y142.728 E13.10463
G1 X136.825 Y140.569 E13.23659
G1 X137.881 Y138.830 E13.35894
G1 X138.383 Y139.081 F7800.000
G1 X138.493 Y138.909 E13.37123 F1800.000
G1 X140.200 Y137.694 E13.49719
G1 X142.500 Y137.194 E13.63874
G1 X142.628 Y137.194 E13.64643
G1 X154.658 Y137.196 E14.36972 F1800.000
G1 X156.715 Y137.592 E14.49567
G1 X158.477 Y138.725 E14.62162
G1 X159.692 Y140.432 E14.74758
G1 X160.049 Y141.481 E14.81426
G1 X162.896 Y153.764 E15.57232
G1 X163.039 Y155.015 E15.64800
G1 X163.039 Y157.272 E15.78371
G1 X162.642 Y159.329 E15.90967
G1 X161.509 Y161.091 E16.03562
G1 X159.803 Y162.306 E16.16157
G1 X157.502 Y162.806 E16.30314
G1 X142.496 Y162.804 E17.20541
G1 X140.439 Y162.407 E17.33136
G1 X138.676 Y161.274 E17.45731
G1 X137.461 Y159.568 E17.58327
G1 X136.961 Y157.267 E17.72483
G1 X136.964 Y142.728 E18.59899
G1 X137.360 Y140.671 E18.72495
G1 X138.350 Y139.131 E18.83500
G1 E16.83500 F2400.00000
G92 E0
G1 Z0.600 F7800.000
G1 X156.132 Y155.899 F7800.000
G1 Z0.300 F7800.000
G1 E1.80000 F2400.00000
G1 X143.868 Y155.897 E2.53737 F1800.000
G1 X143.870 Y144.101 E3.24664
G1 X153.503 Y144.102 E3.82581
G1 X154.099 Y147.534 E4.03524
G1 X155.550 Y153.115 E4.38196
G1 X156.132 Y155.201 E4.51217
G1 X156.132 Y155.839 E4.55054
G1 X156.668 Y156.435 F7800.000
G1 X143.332 Y156.433 E5.35232 F1800.000
G1 X143.335 Y143.565 E6.12599
G1 X153.954 Y143.567 E6.76446
G1 X154.623 Y147.421 E6.99964
G1 X156.068 Y152.976 E7.34476
G1 X156.668 Y155.128 E7.47910
G1 X156.668 Y156.375 E7.55407
G1 X157.203 Y156.971 F7800.000
G1 X142.797 Y156.968 E8.42026 F1800.000
G1 X142.799 Y143.029 E9.25835
G1 X154.404 Y143.031 E9.95611
G1 X155.147 Y147.307 E10.21705
G1 X156.585 Y152.837 E10.56055
G1 X157.203 Y155.055 E10.69902
G1 X157.203 Y156.911 E10.81061
G1 X156.857 Y156.771 F7800.000
G1 X144.457 Y155.576 F7800.000
G1 X144.190 Y155.308 E10.83422 F1800.000
G1 X144.190 Y154.521 E10.88341
G1 X145.244 Y155.576 E10.97659
G1 X146.032 Y155.576 E11.02579
G1 X144.190 Y153.734 E11.18855
G1 X144.190 Y152.947 E11.23773
G1 X146.819 Y155.576 E11.47005
G1 X147.607 Y155.576 E11.51926
G1 X144.190 Y152.160 E11.82115
G1 X144.191 Y151.373 E11.87033
G1 X148.394 Y155.576 E12.24179
G1 X149.181 Y155.576 E12.29099
G1 X144.191 Y150.586 E12.73203
G1 X144.191 Y149.799 E12.78121
G1 X149.969 Y155.577 E13.29181
G1 X150.756 Y155.577 E13.34101
G1 X144.191 Y149.012 E13.92118
G1 X144.191 Y148.224 E13.97036
G1 X151.544 Y155.577 E14.62010
G1 X152.331 Y155.577 E14.66930
G1 X144.191 Y147.437 E15.38861
G1 X144.191 Y146.650 E15.43780
G1 X153.118 Y155.577 E16.22667
G1 X153.906 Y155.577 E16.27587
G1 X144.192 Y145.863 E17.13432
G1 X144.192 Y145.076 E17.18350
G1 X154.693 Y155.577 E18.11152
G1 X155.480 Y155.578 E18.16072
G1 X144.325 Y144.422 E19.14652
G1 X145.113 Y144.422 E19.19572
G1 X155.712 Y155.022 E20.13243
G1 X155.408 Y153.930 E20.20325
G1 X145.900 Y144.423 E21.04347
G1 X146.687 Y144.423 E21.09267
G1 X155.116 Y152.852 E21.83752
G1 X154.839 Y151.788 E21.90622
G1 X147.475 Y144.423 E22.55704
G1 X148.262 Y144.423 E22.60624
G1 X154.563 Y150.724 E23.16303
G1 X154.286 Y149.660 E23.23173
G1 X149.049 Y144.423 E23.69449
G1 X149.837 Y144.423 E23.74369
G1 X154.009 Y148.596 E24.11242
G1 X153.754 Y147.554 E24.17946
G1 X150.624 Y144.423 E24.45608
G1 X151.412 Y144.424 E24.50528
G1 X153.589 Y146.601 E24.69770
G1 X153.424 Y145.648 E24.75812
G1 X152.199 Y144.424 E24.86634
G1 X152.986 Y144.424 E24.91554
G1 X153.258 Y144.696 E24.93956
; layer change
G1 E22.93956 F2400.00000
G92 E0
G1 Z0.600 F7800.000
; after layer change
G1 X156.507 Y156.275 F7800.000
G1 E1.80000 F2400.00000
G1 X143.493 Y156.272 E2.41193 F3845.915
G1 X143.495 Y143.725 E3.00189
G1 X153.819 Y143.727 E3.48730
G1 X154.466 Y147.455 E3.66519
G1 X155.913 Y153.018 E3.93546
G1 X156.507 Y155.150 E4.03956
G1 X156.507 Y156.215 E4.08961
G1 X156.926 Y156.694 F7800.000
G1 X143.074 Y156.691 E4.74094 F3845.915
G1 X143.076 Y143.306 E5.37029
G1 X154.171 Y143.308 E5.89196
G1 X154.876 Y147.366 E6.08561
G1 X156.317 Y152.909 E6.35489
G1 X156.926 Y155.093 E6.46151
G1 X156.926 Y156.634 E6.53396
G1 X157.303 Y157.071 F7800.000
G1 X142.697 Y157.068 E7.08425 F4800.000
G1 X142.699 Y142.929 E7.61692
G1 X154.489 Y142.931 E8.06108
G1 X155.245 Y147.286 E8.22760
G1 X156.681 Y152.810 E8.44265
G1 X157.303 Y155.041 E8.52989
G1 X157.303 Y157.011 E8.60410
G1 X156.957 Y156.871 F7800.000
G1 X156.042 Y156.027 F7800.000
G1 X156.260 Y155.810 E8.61885 F3775.560
G1 X156.260 Y155.206 E8.64775
G1 X155.439 Y156.027 E8.70337
G1 X154.836 Y156.027 E8.73227
G1 X156.150 Y154.713 E8.82131
G1 X156.018 Y154.241 E8.84477
G1 X154.232 Y156.027 E8.96575
G1 X153.629 Y156.027 E8.99465
G1 X155.887 Y153.769 E9.14759
G1 X155.755 Y153.297 E9.17105
G1 X153.026 Y156.027 E9.35594
G1 X152.422 Y156.027 E9.38484
G1 X155.627 Y152.823 E9.60188
G1 X155.502 Y152.344 E9.62558
G1 X151.819 Y156.027 E9.87505
G1 X151.216 Y156.026 E9.90394
G1 X155.377 Y151.865 E10.18584
G1 X155.253 Y151.386 E10.20954
G1 X150.612 Y156.026 E10.52387
G1 X150.009 Y156.026 E10.55277
G1 X155.128 Y150.907 E10.89953
G1 X155.004 Y150.428 E10.92323
G1 X149.406 Y156.026 E11.30242
G1 X148.802 Y156.026 E11.33131
G1 X154.879 Y149.949 E11.74293
G1 X154.755 Y149.470 E11.76663
G1 X148.199 Y156.026 E12.21069
G1 X147.596 Y156.026 E12.23958
G1 X154.630 Y148.991 E12.71607
G1 X154.506 Y148.513 E12.73977
G1 X146.993 Y156.026 E13.24868
G1 X146.389 Y156.026 E13.27757
G1 X154.381 Y148.034 E13.81892
G1 X154.257 Y147.555 E13.84262
G1 X145.786 Y156.025 E14.41639
G1 X145.183 Y156.025 E14.44529
G1 X154.159 Y147.049 E15.05329
G1 X154.069 Y146.535 E15.07829
G1 X144.579 Y156.025 E15.72111
G1 X143.976 Y156.025 E15.75001
G1 X153.980 Y146.021 E16.42765
G1 X153.891 Y145.507 E16.45265
G1 X143.740 Y155.658 E17.14022
G1 X143.740 Y155.054 E17.16913
G1 X153.802 Y144.993 E17.85064
G1 X153.712 Y144.479 E17.87564
G1 X143.740 Y154.450 E18.55110
G1 X143.741 Y153.847 E18.58000
G1 X153.601 Y143.987 E19.24788
G1 X153.010 Y143.974 E19.27619
G1 X143.741 Y153.243 E19.90404
G1 X143.741 Y152.640 E19.93295
G1 X152.406 Y143.974 E20.51993
G1 X151.803 Y143.974 E20.54882
G1 X143.741 Y152.036 E21.09493
G1 X143.741 Y151.433 E21.12384
G1 X151.200 Y143.974 E21.62907
G1 X150.596 Y143.974 E21.65797
G1 X143.741 Y150.829 E22.12232
G1 X143.741 Y150.226 E22.15123
G1 X149.993 Y143.974 E22.57472
G1 X149.390 Y143.974 E22.60361
G1 X143.741 Y149.622 E22.98622
G1 X143.741 Y149.019 E23.01513
G1 X148.787 Y143.974 E23.35687
G1 X148.183 Y143.973 E23.38576
G1 X143.742 Y148.415 E23.68663
G1 X143.742 Y147.812 E23.71554
G1 X147.580 Y143.973 E23.97552
G1 X146.977 Y143.973 E24.00442
G1 X143.742 Y147.208 E24.22354
G1 X143.742 Y146.605 E24.25244
G1 X146.373 Y143.973 E24.43069
G1 X145.770 Y143.973 E24.45958
G1 X143.742 Y146.001 E24.59695
G1 X143.742 Y145.397 E24.62586
G1 X145.167 Y143.973 E24.72235
G1 X144.563 Y143.973 E24.75125
G1 X143.742 Y144.794 E24.80687
G1 X143.742 Y144.190 E24.83578
G1 X143.960 Y143.973 E24.85053
; layer change
G1 E22.85053 F2400.00000
G92 E0
G1 Z0.900 F7800.000
; after layer change
G1 X156.507 Y156.275 F7800.000
G1 E1.80000 F2400.00000
G1 X143.493 Y156.272 E2.41193 F3845.915
G1 X143.495 Y143.725 E3.00189
G1 X153.819 Y143.727 E3.48730
G1 X154.466 Y147.455 E3.66519
G1 X155.913 Y153.018 E3.93546
G1 X156.507 Y155.150 E4.03956
G1 X156.507 Y156.215 E4.08961
G1 X156.926 Y156.694 F7800.000
G1 X143.074 Y156.691 E4.74094 F3845.915
G1 X143.076 Y143.306 E5.37029
G1 X154.171 Y143.308 E5.89196
G1 X154.876 Y147.366 E6.08561
G1 X156.317 Y152.909 E6.35489
G1 X156.926 Y155.093 E6.46151
G1 X156.926 Y156.634 E6.53396
G1 X157.303 Y157.071 F7800.000
G1 X142.697 Y157.068 E7.08425 F4800.000
G1 X142.699 Y142.929 E7.61692
G1 X154.489 Y142.931 E8.06108
G1 X155.245 Y147.286 E8.22760
G1 X156.681 Y152.810 E8.44265
G1 X157.303 Y155.041 E8.52989
G1 X157.303 Y157.011 E8.60410
G1 X156.957 Y156.871 F7800.000
G1 X153.633 Y144.197 F7800.000
G1 X153.410 Y143.974 E8.61900 F3814.194
G1 X152.813 Y143.974 E8.64733
G1 X153.758 Y144.919 E8.71070
G1 X153.884 Y145.642 E8.74549
G1 X152.215 Y143.974 E8.85733
G1 X151.618 Y143.974 E8.88566
G1 X154.009 Y146.365 E9.04598
G1 X154.135 Y147.088 E9.08076
G1 X151.021 Y143.974 E9.28955
G1 X150.423 Y143.974 E9.31787
G1 X154.283 Y147.834 E9.57667
G1 X154.493 Y148.641 E9.61622
G1 X149.826 Y143.974 E9.92914
G1 X149.228 Y143.974 E9.95747
G1 X154.703 Y149.448 E10.32453
G1 X154.913 Y150.255 E10.36408
G1 X148.631 Y143.974 E10.78527
G1 X148.034 Y143.973 E10.81359
G1 X155.123 Y151.063 E11.28892
G1 X155.333 Y151.870 E11.32846
G1 X147.436 Y143.973 E11.85792
G1 X146.839 Y143.973 E11.88625
G1 X155.543 Y152.677 E12.46984
G1 X155.760 Y153.492 E12.50982
G1 X146.241 Y143.973 E13.14805
G1 X145.644 Y143.973 E13.17638
G1 X155.991 Y154.320 E13.87016
G1 X156.222 Y155.149 E13.91093
G1 X145.046 Y143.973 E14.66026
G1 X144.449 Y143.973 E14.68858
G1 X156.260 Y155.784 E15.48051
G1 X155.906 Y156.027 E15.50087
G1 X143.852 Y143.973 E16.30913
G1 X143.742 Y144.461 E16.33284
G1 X155.309 Y156.027 E17.10837
G1 X154.711 Y156.027 E17.13670
G1 X143.742 Y145.058 E17.87219
G1 X143.742 Y145.655 E17.90050
G1 X154.114 Y156.027 E18.59594
G1 X153.517 Y156.027 E18.62426
G1 X143.742 Y146.252 E19.27965
G1 X143.742 Y146.849 E19.30797
G1 X152.919 Y156.027 E19.92331
G1 X152.322 Y156.027 E19.95163
G1 X143.742 Y147.447 E20.52692
G1 X143.742 Y148.044 E20.55523
G1 X151.724 Y156.027 E21.09047
G1 X151.127 Y156.026 E21.11880
G1 X143.741 Y148.641 E21.61399
G1 X143.741 Y149.238 E21.64230
G1 X150.529 Y156.026 E22.09745
G1 X149.932 Y156.026 E22.12577
G1 X143.741 Y149.835 E22.54086
G1 X143.741 Y150.433 E22.56918
G1 X149.335 Y156.026 E22.94422
G1 X148.737 Y156.026 E22.97254
G1 X143.741 Y151.030 E23.30754
G1 X143.741 Y151.627 E23.33585
G1 X148.140 Y156.026 E23.63079
G1 X147.542 Y156.026 E23.65912
G1 X143.741 Y152.224 E23.91401
G1 X143.741 Y152.821 E23.94233
G1 X146.945 Y156.026 E24.15717
G1 X146.348 Y156.026 E24.18550
G1 X143.741 Y153.419 E24.36029
G1 X143.740 Y154.016 E24.38861
G1 X145.750 Y156.025 E24.52335
G1 X145.153 Y156.025 E24.55168
G1 X143.740 Y154.613 E24.64637
G1 X143.740 Y155.210 E24.67469
G1 X144.555 Y156.025 E24.72933
G1 X143.958 Y156.025 E24.75766
G1 X143.740 Y155.807 E24.77226
M106 S255
; layer change
G1 E22.77226 F2400.00000
G92 E0
G1 Z1.200 F7800.000
; after layer change
G1 X156.507 Y156.275 F7800.000
G1 E1.80000 F2400.00000
G1 X143.493 Y156.272 E2.41193 F2634.768
G1 X143.495 Y143.725 E3.00189
G1 X153.819 Y143.727 E3.48730
G1 X154.466 Y147.455 E3.66519
G1 X155.913 Y153.018 E3.93546
G1 X156.507 Y155.150 E4.03956
G1 X156.507 Y156.215 E4.08961
G1 X156.926 Y156.694 F7800.000
G1 X143.074 Y156.691 E4.74094 F2634.768
G1 X143.076 Y143.306 E5.37029
G1 X154.171 Y143.308 E5.89196
G1 X154.876 Y147.366 E6.08561
G1 X156.317 Y152.909 E6.35489
G1 X156.926 Y155.093 E6.46151
G1 X156.926 Y156.634 E6.53396
G1 X157.303 Y157.071 F7800.000
G1 X142.697 Y157.068 E7.08425 F3288.395
G1 X142.699 Y142.929 E7.61692
G1 X154.489 Y142.931 E8.06108
G1 X155.245 Y147.286 E8.22760
G1 X156.681 Y152.810 E8.44265
G1 X157.303 Y155.041 E8.52989
G1 X157.303 Y157.011 E8.60410
G1 X156.957 Y156.871 F7800.000
G1 X156.151 Y155.199 F7800.000
G1 X156.137 Y155.148 E8.60658 F2634.768
G1 X155.367 Y155.918 E8.65780
G1 X156.151 Y155.918 E8.69468
G1 X156.151 Y155.199 E8.72852
G1 X155.146 Y151.486 F7800.000
G1 X152.587 Y150.800 E8.85313 F2634.768
G1 X150.135 Y153.251 E9.01612
G1 X150.845 Y155.899 E9.14500
G1 X150.826 Y155.918 E9.14625
G1 X154.774 Y155.918 E9.33191
G1 X156.008 Y154.685 E9.41393
G1 X155.569 Y153.110 E9.49079
G1 X155.146 Y151.486 E9.56971
G1 X153.791 Y145.647 F7800.000
G1 X153.703 Y145.142 E9.59380 F2634.768
G1 X151.285 Y147.560 E9.75460
G1 X148.637 Y146.851 E9.88348
G1 X146.186 Y149.302 E10.04647
G1 X146.896 Y151.949 E10.17534
G1 X144.445 Y154.400 E10.33833
G1 X143.849 Y154.241 E10.36731
G1 X143.849 Y155.916 E10.44608
G1 X145.068 Y155.916 E10.50338
G1 X144.741 Y154.697 E10.56276
G1 X147.192 Y152.246 E10.72575
G1 X149.839 Y152.955 E10.85463
G1 X152.290 Y150.504 E11.01762
G1 X151.581 Y147.856 E11.14649
G1 X153.791 Y145.647 E11.29342
G1 X153.519 Y144.083 F7800.000
G1 X153.461 Y144.083 E11.29616 F2634.768
G1 X153.626 Y144.699 E11.32614
G1 X153.519 Y144.083 E11.35554
G1 X147.679 Y144.082 F7800.000
G1 X143.851 Y144.082 E11.53552 F2634.768
G1 X143.850 Y148.459 E11.74135
G1 X145.890 Y149.006 E11.84065
G1 X148.341 Y146.555 E12.00364
G1 X147.679 Y144.082 E12.12399
; layer change
G1 E10.12399 F2400.00000
G92 E0
G1 Z1.500 F7800.000
; after layer change
G1 X156.507 Y156.275 F7800.000
G1 E1.80000 F2400.00000
G1 X143.493 Y156.272 E2.41193 F2730.648
G1 X143.495 Y143.725 E3.00189
G1 X153.819 Y143.727 E3.48730
G1 X154.466 Y147.455 E3.66519
G1 X155.913 Y153.018 E3.93546
G1 X156.507 Y155.150 E4.03956
G1 X156.507 Y156.215 E4.08961
G1 X156.926 Y156.694 F7800.000
G1 X143.074 Y156.691 E4.74094 F2730.648
G1 X143.076 Y143.306 E5.37028
G1 X154.171 Y143.308 E5.89196
G1 X154.876 Y147.366 E6.08561
G1 X156.317 Y152.909 E6.35489
G1 X156.926 Y155.093 E6.46151
G1 X156.926 Y156.634 E6.53396
G1 X157.303 Y157.071 F7800.000
G1 X142.697 Y157.068 E7.08425 F3408.060
G1 X142.699 Y142.929 E7.61692
G1 X154.489 Y142.931 E8.06108
G1 X155.245 Y147.286 E8.22760
G1 X156.681 Y152.810 E8.44265
G1 X157.303 Y155.041 E8.52989
G1 X157.303 Y157.011 E8.60410
G1 X156.957 Y156.871 F7800.000
G1 X144.445 Y154.400 F7800.000
G1 X144.851 Y155.916 E8.67790 F2730.648
G1 X143.849 Y155.916 E8.72500
G1 X143.849 Y154.241 E8.80377
G1 X144.445 Y154.400 E8.83275
G1 X147.462 Y144.082 F7800.000
G1 X148.233 Y146.959 E8.97280 F2730.648
G1 X146.295 Y148.897 E9.10168
G1 X147.192 Y152.246 E9.26467
G1 X149.839 Y152.955 E9.39354
G1 X150.633 Y155.917 E9.53776
G1 X145.284 Y155.917 E9.78925
G1 X144.849 Y154.292 E9.86833
G1 X146.787 Y152.354 E9.99721
G1 X145.890 Y149.006 E10.16020
G1 X143.850 Y148.459 E10.25949
G1 X143.851 Y144.082 E10.46533
G1 X147.462 Y144.082 E10.63510
G1 X153.244 Y144.083 F7800.000
G1 X153.627 Y145.514 E10.70474 F2730.648
G1 X151.689 Y147.452 E10.83361
G1 X152.587 Y150.800 E10.99660
G1 X155.146 Y151.486 E11.12121
G1 X155.569 Y153.110 E11.20013
G1 X156.072 Y154.916 E11.28829
G1 X155.071 Y155.918 E11.35491
