; generated by Slic3r 1.2.9 on 2017-01-27 at 18:04:05

; external perimeters extrusion width = 0.40mm
; perimeters extrusion width = 0.48mm
; infill extrusion width = 0.48mm
; solid infill extrusion width = 0.48mm
; top infill extrusion width = 0.48mm

M107
G28 ; home all axes
G1 Z5 F5000 ; lift nozzle
M42 P4 S0
G21 ; set units to millimeters
G90 ; use absolute coordinates
M82 ; use absolute distances for extrusion
G92 E0
; layer change
G1 E-1.75000 F2400.00000
G92 E0
G1 Z0.300 F7800.000
; start perimeter
M42 P11 S255
G1 X137.433 Y138.488 F7800.000
G1 E1.75000 F2400.00000
G1 X139.186 Y137.013 E1.88770 F1800.000
G1 X141.336 Y136.225 E2.02541
G1 X142.628 Y136.122 E2.10333
G1 X154.658 Y136.124 E2.82662 F1800.000
G1 X156.914 Y136.522 E2.96432
G1 X158.898 Y137.665 E3.10203
G1 X160.373 Y139.418 E3.23973
G1 X161.093 Y141.240 E3.35752
G1 X163.940 Y153.522 E4.11558
G1 X164.110 Y155.015 E4.20592
G1 X164.110 Y157.272 E4.34162
G1 X163.713 Y159.528 E4.47933
G1 X162.569 Y161.512 E4.61703
G1 X160.817 Y162.987 E4.75474
G1 X158.666 Y163.775 E4.89244
G1 X157.502 Y163.878 E4.96272
G1 X142.495 Y163.875 E5.86499
G1 X140.240 Y163.478 E6.00269
G1 X138.255 Y162.334 E6.14039
G1 X136.781 Y160.582 E6.27810
G1 X135.993 Y158.431 E6.41580
G1 X135.890 Y157.267 E6.48607
G1 X135.892 Y142.728 E7.36024
G1 X136.290 Y140.472 E7.49794
G1 X137.403 Y138.540 E7.63204
G1 X137.912 Y138.778 F7800.000
G1 X137.964 Y138.693 E7.63804 F1800.000
G1 X139.695 Y137.344 E7.77000
G1 X142.500 Y136.658 E7.94363
G1 X142.628 Y136.658 E7.95132
G1 X154.658 Y136.660 E8.67461 F1800.000
G1 X156.816 Y137.057 E8.80657
G1 X158.693 Y138.196 E8.93853
G1 X160.042 Y139.927 E9.07049
G1 X160.571 Y141.361 E9.16237
G1 X163.418 Y153.643 E9.92043
G1 X163.575 Y155.015 E10.00344
G1 X163.574 Y157.272 E10.13914
G1 X163.177 Y159.430 E10.27110
G1 X162.039 Y161.307 E10.40306
G1 X160.307 Y162.656 E10.53502
G1 X157.502 Y163.342 E10.70867
G1 X142.495 Y163.339 E11.61094
G1 X140.337 Y162.942 E11.74290
G1 X138.461 Y161.804 E11.87486
G1 X137.112 Y160.072 E12.00682
G1 X136.425 Y157.267 E12.18046
G1 X136.428 Y142.728 E13.05463
G1 X136.825 Y140.569 E13.18659
G1 X137.881 Y138.830 E13.30894
G1 X138.383 Y139.081 F7800.000
G1 X138.493 Y138.909 E13.32123 F1800.000
G1 X140.200 Y137.694 E13.44719
G1 X142.500 Y137.194 E13.58874
G1 X142.628 Y137.194 E13.59643
G1 X154.658 Y137.196 E14.31972 F1800.000
G1 X156.715 Y137.592 E14.44567
G1 X158.477 Y138.725 E14.57162
G1 X159.692 Y140.432 E14.69758
G1 X160.049 Y141.481 E14.76426
G1 X162.896 Y153.764 E15.52232
G1 X163.039 Y155.015 E15.59800
G1 X163.039 Y157.272 E15.73371
G1 X162.642 Y159.329 E15.85967
G1 X161.509 Y161.091 E15.98562
G1 X159.803 Y162.306 E16.11157
G1 X157.502 Y162.806 E16.25314
G1 X142.496 Y162.804 E17.15541
G1 X140.439 Y162.407 E17.28136
G1 X138.676 Y161.274 E17.40731
G1 X137.461 Y159.568 E17.53327
G1 X136.961 Y157.267 E17.67483
G1 X136.964 Y142.728 E18.54899
G1 X137.360 Y140.671 E18.67495
G1 X138.350 Y139.131 E18.78500
G1 E17.03500 F2400.00000
G92 E0
G1 X156.132 Y155.899 F7800.000
G1 E1.75000 F2400.00000
G1 X143.868 Y155.897 E2.48737 F1800.000
G1 X143.870 Y144.101 E3.19664
G1 X153.503 Y144.102 E3.77581
G1 X154.099 Y147.534 E3.98524
G1 X155.550 Y153.115 E4.33196
G1 X156.132 Y155.201 E4.46217
G1 X156.132 Y155.839 E4.50054
G1 X156.668 Y156.435 F7800.000
G1 X143.332 Y156.433 E5.30232 F1800.000
G1 X143.335 Y143.565 E6.07599
G1 X153.954 Y143.567 E6.71446
G1 X154.623 Y147.421 E6.94964
G1 X156.068 Y152.976 E7.29476
G1 X156.668 Y155.128 E7.42910
G1 X156.668 Y156.375 E7.50407
G1 X157.203 Y156.971 F7800.000
G1 X142.797 Y156.968 E8.37026 F1800.000
G1 X142.799 Y143.029 E9.20835
G1 X154.404 Y143.031 E9.90611
G1 X155.147 Y147.307 E10.16705
G1 X156.585 Y152.837 E10.51055
G1 X157.203 Y155.055 E10.64902
G1 X157.203 Y156.911 E10.76061
G1 X156.857 Y156.771 F7800.000
G1 X144.457 Y155.576 F7800.000
G1 X144.190 Y155.308 E10.78422 F1800.000
G1 X144.190 Y154.521 E10.83341
G1 X145.244 Y155.576 E10.92659
G1 X146.032 Y155.576 E10.97579
G1 X144.190 Y153.734 E11.13855
G1 X144.190 Y152.947 E11.18773
G1 X146.819 Y155.576 E11.42005
G1 X147.607 Y155.576 E11.46926
G1 X144.190 Y152.160 E11.77115
G1 X144.191 Y151.373 E11.82033
G1 X148.394 Y155.576 E12.19179
G1 X149.181 Y155.576 E12.24099
G1 X144.191 Y150.586 E12.68203
G1 X144.191 Y149.799 E12.73121
G1 X149.969 Y155.577 E13.24181
G1 X150.756 Y155.577 E13.29101
G1 X144.191 Y149.012 E13.87118
G1 X144.191 Y148.224 E13.92036
G1 X151.544 Y155.577 E14.57010
G1 X152.331 Y155.577 E14.61930
G1 X144.191 Y147.437 E15.33861
G1 X144.191 Y146.650 E15.38780
G1 X153.118 Y155.577 E16.17667
G1 X153.906 Y155.577 E16.22587
G1 X144.192 Y145.863 E17.08432
G1 X144.192 Y145.076 E17.13350
G1 X154.693 Y155.577 E18.06152
G1 X155.480 Y155.578 E18.11072
G1 X144.325 Y144.422 E19.09652
G1 X145.113 Y144.422 E19.14572
G1 X155.712 Y155.022 E20.08243
G1 X155.408 Y153.930 E20.15325
G1 X145.900 Y144.423 E20.99347
G1 X146.687 Y144.423 E21.04267
G1 X155.116 Y152.852 E21.78752
G1 X154.839 Y151.788 E21.85622
G1 X147.475 Y144.423 E22.50704
G1 X148.262 Y144.423 E22.55624
G1 X154.563 Y150.724 E23.11303
G1 X154.286 Y149.660 E23.18173
G1 X149.049 Y144.423 E23.64449
G1 X149.837 Y144.423 E23.69369
G1 X154.009 Y148.596 E24.06242
G1 X153.754 Y147.554 E24.12946
G1 X150.624 Y144.423 E24.40608
G1 X151.412 Y144.424 E24.45528
G1 X153.589 Y146.601 E24.64770
G1 X153.424 Y145.648 E24.70812
G1 X152.199 Y144.424 E24.81634
G1 X152.986 Y144.424 E24.86554
G1 X153.258 Y144.696 E24.88956
; layer change
G1 E23.13956 F2400.00000
G92 E0
G1 Z0.600 F7800.000
; start perimeter
M42 P11 S255
G1 X156.507 Y156.275 F7800.000
G1 E1.75000 F2400.00000
G1 X143.493 Y156.272 E2.36193 F3000.000
G1 X143.495 Y143.725 E2.95189
G1 X153.819 Y143.727 E3.43730
G1 X154.466 Y147.455 E3.61519
G1 X155.913 Y153.018 E3.88546
G1 X156.507 Y155.150 E3.98956
G1 X156.507 Y156.215 E4.03961
G1 X156.926 Y156.694 F7800.000
G1 X143.074 Y156.691 E4.69094 F3000.000
G1 X143.076 Y143.306 E5.32029
G1 X154.171 Y143.308 E5.84196
G1 X154.876 Y147.366 E6.03561
G1 X156.317 Y152.909 E6.30489
G1 X156.926 Y155.093 E6.41151
G1 X156.926 Y156.634 E6.48396
G1 X157.303 Y157.071 F7800.000
G1 X142.697 Y157.068 E7.03425 F1500.000
G1 X142.699 Y142.929 E7.56692
G1 X154.489 Y142.931 E8.01108
G1 X155.245 Y147.286 E8.17760
G1 X156.681 Y152.810 E8.39265
G1 X157.303 Y155.041 E8.47989
G1 X157.303 Y157.011 E8.55410
G1 X156.957 Y156.871 F7800.000
G1 X156.042 Y156.027 F7800.000
G1 X156.260 Y155.810 E8.56885 F1200.000
G1 X156.260 Y155.206 E8.59775
G1 X155.439 Y156.027 E8.65337
G1 X154.836 Y156.027 E8.68227
G1 X156.150 Y154.713 E8.77131
G1 X156.018 Y154.241 E8.79477
G1 X154.232 Y156.027 E8.91575
G1 X153.629 Y156.027 E8.94465
G1 X155.887 Y153.769 E9.09759
G1 X155.755 Y153.297 E9.12105
G1 X153.026 Y156.027 E9.30594
G1 X152.422 Y156.027 E9.33484
G1 X155.627 Y152.823 E9.55188
G1 X155.502 Y152.344 E9.57558
G1 X151.819 Y156.027 E9.82505
G1 X151.216 Y156.026 E9.85394
G1 X155.377 Y151.865 E10.13584
G1 X155.253 Y151.386 E10.15954
G1 X150.612 Y156.026 E10.47387
G1 X150.009 Y156.026 E10.50277
G1 X155.128 Y150.907 E10.84953
G1 X155.004 Y150.428 E10.87323
G1 X149.406 Y156.026 E11.25242
G1 X148.802 Y156.026 E11.28131
G1 X154.879 Y149.949 E11.69293
G1 X154.755 Y149.470 E11.71663
G1 X148.199 Y156.026 E12.16069
G1 X147.596 Y156.026 E12.18958
G1 X154.630 Y148.991 E12.66607
G1 X154.506 Y148.513 E12.68977
G1 X146.993 Y156.026 E13.19868
G1 X146.389 Y156.026 E13.22757
G1 X154.381 Y148.034 E13.76892
G1 X154.257 Y147.555 E13.79262
G1 X145.786 Y156.025 E14.36639
G1 X145.183 Y156.025 E14.39529
G1 X154.159 Y147.049 E15.00329
G1 X154.069 Y146.535 E15.02829
G1 X144.579 Y156.025 E15.67111
G1 X143.976 Y156.025 E15.70001
G1 X153.980 Y146.021 E16.37765
G1 X153.891 Y145.507 E16.40265
G1 X143.740 Y155.658 E17.09022
G1 X143.740 Y155.054 E17.11913
G1 X153.802 Y144.993 E17.80064
G1 X153.712 Y144.479 E17.82564
G1 X143.740 Y154.450 E18.50110
G1 X143.741 Y153.847 E18.53000
G1 X153.601 Y143.987 E19.19788
G1 X153.010 Y143.974 E19.22619
G1 X143.741 Y153.243 E19.85404
G1 X143.741 Y152.640 E19.88295
G1 X152.406 Y143.974 E20.46993
G1 X151.803 Y143.974 E20.49882
G1 X143.741 Y152.036 E21.04493
G1 X143.741 Y151.433 E21.07384
G1 X151.200 Y143.974 E21.57907
G1 X150.596 Y143.974 E21.60797
G1 X143.741 Y150.829 E22.07232
G1 X143.741 Y150.226 E22.10123
G1 X149.993 Y143.974 E22.52472
G1 X149.390 Y143.974 E22.55361
G1 X143.741 Y149.622 E22.93622
G1 X143.741 Y149.019 E22.96513
G1 X148.787 Y143.974 E23.30687
G1 X148.183 Y143.973 E23.33576
G1 X143.742 Y148.415 E23.63663
G1 X143.742 Y147.812 E23.66554
G1 X147.580 Y143.973 E23.92552
G1 X146.977 Y143.973 E23.95442
G1 X143.742 Y147.208 E24.17354
G1 X143.742 Y146.605 E24.20244
G1 X146.373 Y143.973 E24.38069
G1 X145.770 Y143.973 E24.40958
G1 X143.742 Y146.001 E24.54695
G1 X143.742 Y145.397 E24.57586
G1 X145.167 Y143.973 E24.67235
G1 X144.563 Y143.973 E24.70125
G1 X143.742 Y144.794 E24.75687
G1 X143.742 Y144.190 E24.78578
G1 X143.960 Y143.973 E24.80053
; layer change
G1 E23.05053 F2400.00000
G92 E0
G1 Z0.900 F7800.000
; start perimeter
M42 P11 S255
G1 X156.507 Y156.275 F7800.000
G1 E1.75000 F2400.00000
G1 X143.493 Y156.272 E2.36193 F3000.000
G1 X143.495 Y143.725 E2.95189
G1 X153.819 Y143.727 E3.43730
G1 X154.466 Y147.455 E3.61519
G1 X155.913 Y153.018 E3.88546
G1 X156.507 Y155.150 E3.98956
G1 X156.507 Y156.215 E4.03961
G1 X156.926 Y156.694 F7800.000
G1 X143.074 Y156.691 E4.69094 F3000.000
G1 X143.076 Y143.306 E5.32029
G1 X154.171 Y143.308 E5.84196
G1 X154.876 Y147.366 E6.03561
G1 X156.317 Y152.909 E6.30489
G1 X156.926 Y155.093 E6.41151
G1 X156.926 Y156.634 E6.48396
G1 X157.303 Y157.071 F7800.000
G1 X142.697 Y157.068 E7.03425 F1500.000
G1 X142.699 Y142.929 E7.56692
G1 X154.489 Y142.931 E8.01108
G1 X155.245 Y147.286 E8.17760
G1 X156.681 Y152.810 E8.39265
G1 X157.303 Y155.041 E8.47989
G1 X157.303 Y157.011 E8.55410
G1 X156.957 Y156.871 F7800.000
G1 X153.633 Y144.197 F7800.000
G1 X153.410 Y143.974 E8.56900 F1200.000
G1 X152.813 Y143.974 E8.59733
G1 X153.758 Y144.919 E8.66070
G1 X153.884 Y145.642 E8.69549
G1 X152.215 Y143.974 E8.80733
G1 X151.618 Y143.974 E8.83566
G1 X154.009 Y146.365 E8.99598
G1 X154.135 Y147.088 E9.03076
G1 X151.021 Y143.974 E9.23955
G1 X150.423 Y143.974 E9.26787
G1 X154.283 Y147.834 E9.52667
G1 X154.493 Y148.641 E9.56622
G1 X149.826 Y143.974 E9.87914
G1 X149.228 Y143.974 E9.90747
G1 X154.703 Y149.448 E10.27453
G1 X154.913 Y150.255 E10.31408
G1 X148.631 Y143.974 E10.73527
G1 X148.034 Y143.973 E10.76359
G1 X155.123 Y151.063 E11.23892
G1 X155.333 Y151.870 E11.27846
G1 X147.436 Y143.973 E11.80792
G1 X146.839 Y143.973 E11.83625
G1 X155.543 Y152.677 E12.41984
G1 X155.760 Y153.492 E12.45982
G1 X146.241 Y143.973 E13.09805
G1 X145.644 Y143.973 E13.12638
G1 X155.991 Y154.320 E13.82016
G1 X156.222 Y155.149 E13.86093
G1 X145.046 Y143.973 E14.61026
G1 X144.449 Y143.973 E14.63858
G1 X156.260 Y155.784 E15.43051
G1 X155.906 Y156.027 E15.45087
G1 X143.852 Y143.973 E16.25913
G1 X143.742 Y144.461 E16.28284
G1 X155.309 Y156.027 E17.05837
G1 X154.711 Y156.027 E17.08670
G1 X143.742 Y145.058 E17.82219
G1 X143.742 Y145.655 E17.85050
G1 X154.114 Y156.027 E18.54594
G1 X153.517 Y156.027 E18.57426
G1 X143.742 Y146.252 E19.22965
G1 X143.742 Y146.849 E19.25797
G1 X152.919 Y156.027 E19.87331
G1 X152.322 Y156.027 E19.90163
G1 X143.742 Y147.447 E20.47692
G1 X143.742 Y148.044 E20.50523
G1 X151.724 Y156.027 E21.04047
G1 X151.127 Y156.026 E21.06880
G1 X143.741 Y148.641 E21.56399
G1 X143.741 Y149.238 E21.59230
G1 X150.529 Y156.026 E22.04745
G1 X149.932 Y156.026 E22.07577
G1 X143.741 Y149.835 E22.49086
G1 X143.741 Y150.433 E22.51918
G1 X149.335 Y156.026 E22.89422
G1 X148.737 Y156.026 E22.92254
G1 X143.741 Y151.030 E23.25754
G1 X143.741 Y151.627 E23.28585
G1 X148.140 Y156.026 E23.58079
G1 X147.542 Y156.026 E23.60912
G1 X143.741 Y152.224 E23.86401
G1 X143.741 Y152.821 E23.89233
G1 X146.945 Y156.026 E24.10717
G1 X146.348 Y156.026 E24.13550
G1 X143.741 Y153.419 E24.31029
G1 X143.740 Y154.016 E24.33861
G1 X145.750 Y156.025 E24.47335
G1 X145.153 Y156.025 E24.50168
G1 X143.740 Y154.613 E24.59637
G1 X143.740 Y155.210 E24.62469
G1 X144.555 Y156.025 E24.67933
G1 X143.958 Y156.025 E24.70766
G1 X143.740 Y155.807 E24.72226
M106 S252.45
; layer change
G1 E22.97226 F2400.00000
G92 E0
G1 Z1.200 F7800.000
; start perimeter
M42 P11 S255
G1 X156.507 Y156.275 F7800.000
G1 E1.75000 F2400.00000
G1 X143.493 Y156.272 E2.36193 F3000.000
G1 X143.495 Y143.725 E2.95189
G1 X153.819 Y143.727 E3.43730
G1 X154.466 Y147.455 E3.61519
G1 X155.913 Y153.018 E3.88546
G1 X156.507 Y155.150 E3.98956
G1 X156.507 Y156.215 E4.03961
G1 X156.926 Y156.694 F7800.000
G1 X143.074 Y156.691 E4.69094 F3000.000
G1 X143.076 Y143.306 E5.32029
G1 X154.171 Y143.308 E5.84196
G1 X154.876 Y147.366 E6.03561
G1 X156.317 Y152.909 E6.30489
G1 X156.926 Y155.093 E6.41151
G1 X156.926 Y156.634 E6.48396
G1 X157.303 Y157.071 F7800.000
G1 X142.697 Y157.068 E7.03425 F1500.000
G1 X142.699 Y142.929 E7.56692
G1 X154.489 Y142.931 E8.01108
G1 X155.245 Y147.286 E8.17760
G1 X156.681 Y152.810 E8.39265
G1 X157.303 Y155.041 E8.47989
G1 X157.303 Y157.011 E8.55410
G1 X156.957 Y156.871 F7800.000
G1 X156.151 Y155.199 F7800.000
G1 X156.137 Y155.148 E8.55658 F3600.000
G1 X155.367 Y155.918 E8.60780
G1 X156.151 Y155.918 E8.64468
G1 X156.151 Y155.199 E8.67852
G1 X155.146 Y151.486 F7800.000
G1 X152.587 Y150.800 E8.80313 F3600.000
G1 X150.135 Y153.251 E8.96612
G1 X150.845 Y155.899 E9.09500
G1 X150.826 Y155.918 E9.09625
G1 X154.774 Y155.918 E9.28191
G1 X156.008 Y154.685 E9.36393
G1 X155.569 Y153.110 E9.44079
G1 X155.146 Y151.486 E9.51971
G1 X153.791 Y145.647 F7800.000
G1 X153.703 Y145.142 E9.54380 F3600.000
G1 X151.285 Y147.560 E9.70460
G1 X148.637 Y146.851 E9.83348
G1 X146.186 Y149.302 E9.99647
G1 X146.896 Y151.949 E10.12534
G1 X144.445 Y154.400 E10.28833
G1 X143.849 Y154.241 E10.31731
G1 X143.849 Y155.916 E10.39608
G1 X145.068 Y155.916 E10.45338
G1 X144.741 Y154.697 E10.51276
G1 X147.192 Y152.246 E10.67575
G1 X149.839 Y152.955 E10.80463
G1 X152.290 Y150.504 E10.96762
G1 X151.581 Y147.856 E11.09649
G1 X153.791 Y145.647 E11.24342
G1 X153.519 Y144.083 F7800.000
G1 X153.461 Y144.083 E11.24616 F3600.000
G1 X153.626 Y144.699 E11.27614
G1 X153.519 Y144.083 E11.30554
G1 X147.679 Y144.082 F7800.000
G1 X143.851 Y144.082 E11.48552 F3600.000
G1 X143.850 Y148.459 E11.69135
G1 X145.890 Y149.006 E11.79065
G1 X148.341 Y146.555 E11.95364
G1 X147.679 Y144.082 E12.07399
; layer change
G1 E10.32399 F2400.00000
G92 E0
G1 Z1.500 F7800.000
; start perimeter
M42 P11 S255
G1 X156.507 Y156.275 F7800.000
G1 E1.75000 F2400.00000
G1 X143.493 Y156.272 E2.36193 F3000.000
G1 X143.495 Y143.725 E2.95189
G1 X153.819 Y143.727 E3.43730
G1 X154.466 Y147.455 E3.61519
G1 X155.913 Y153.018 E3.88546
G1 X156.507 Y155.150 E3.98956
G1 X156.507 Y156.215 E4.03961
G1 X156.926 Y156.694 F7800.000
G1 X143.074 Y156.691 E4.69094 F3000.000
G1 X143.076 Y143.306 E5.32028
G1 X154.171 Y143.308 E5.84196
G1 X154.876 Y147.366 E6.03561
G1 X156.317 Y152.909 E6.30489
G1 X156.926 Y155.093 E6.41151
G1 X156.926 Y156.634 E6.48396
G1 X157.303 Y157.071 F7800.000
G1 X142.697 Y157.068 E7.03425 F1500.000
G1 X142.699 Y142.929 E7.56692
G1 X154.489 Y142.931 E8.01108
G1 X155.245 Y147.286 E8.17760
G1 X156.681 Y152.810 E8.39265
G1 X157.303 Y155.041 E8.47989
G1 X157.303 Y157.011 E8.55410
G1 X156.957 Y156.871 F7800.000
G1 X144.445 Y154.400 F7800.000
G1 X144.851 Y155.916 E8.62790 F3600.000
G1 X143.849 Y155.916 E8.67500
G1 X143.849 Y154.241 E8.75377
G1 X144.445 Y154.400 E8.78275
G1 X147.462 Y144.082 F7800.000
G1 X148.233 Y146.959 E8.92280 F3600.000
G1 X146.295 Y148.897 E9.05168
G1 X147.192 Y152.246 E9.21467
G1 X149.839 Y152.955 E9.34354
G1 X150.633 Y155.917 E9.48776
G1 X145.284 Y155.917 E9.73925
G1 X144.849 Y154.292 E9.81833
G1 X146.787 Y152.354 E9.94721
G1 X145.890 Y149.006 E10.11020
G1 X143.850 Y148.459 E10.20949
G1 X143.851 Y144.082 E10.41533
G1 X147.462 Y144.082 E10.58510
G1 X153.244 Y144.083 F7800.000
G1 X153.627 Y145.514 E10.65474 F3600.000
G1 X151.689 Y147.452 E10.78361
G1 X152.587 Y150.800 E10.94660
G1 X155.146 Y151.486 E11.07121
G1 X155.569 Y153.110 E11.15013
G1 X156.072 Y154.916 E11.23829
G1 X155.071 Y155.918 E11.30491
G1 X151.067 Y155.918 E11.49318
