; generated by Slic3r 1.2.9 on 2017-01-22 at 20:59:12

; external perimeters extrusion width = 0.40mm
; perimeters extrusion width = 0.48mm
; infill extrusion width = 0.48mm
; solid infill extrusion width = 0.48mm
; top infill extrusion width = 0.48mm

M107
G28 ; home all axes
G1 Z5 F5000 ; lift nozzle
M42 P4 S0
G21 ; set units to millimeters
G90 ; use absolute coordinates
M82 ; use absolute distances for extrusion
G92 E0
; layer change
G1 E-1.75000 F2400.00000
G92 E0
G1 Z0.300 F7800.000
; start perimeter
M42 P11 S255
G1 X140.065 Y140.065 F7800.000
G1 E1.75000 F2400.00000
G1 X140.523 Y139.607 E1.78895 F1800.000
G1 X141.823 Y138.545 E1.88987
G1 X142.733 Y137.958 E1.95502
G1 X144.024 Y137.268 E2.04298
G1 X144.612 Y136.990 E2.08213
G1 X145.223 Y136.771 E2.12114
G1 X146.623 Y136.346 E2.20910
G1 X147.678 Y136.119 E2.27400
G1 X147.897 Y136.093 E2.28722
G1 X149.352 Y135.950 E2.37518
G1 X150.648 Y135.950 E2.45305
G1 X152.103 Y136.093 E2.54101
G1 X152.322 Y136.119 E2.55421 F1800.000
G1 X153.377 Y136.346 E2.61913
G1 X154.777 Y136.771 E2.70708
G1 X155.389 Y136.990 E2.74615
G1 X155.976 Y137.268 E2.78524
G1 X157.267 Y137.958 E2.87320
G1 X158.175 Y138.543 E2.93816
G1 X159.477 Y139.607 E3.03928
G1 X160.393 Y140.523 E3.11715
G1 X161.457 Y141.826 E3.21828
G1 X162.042 Y142.733 E3.28322
G1 X162.732 Y144.024 E3.37118
G1 X163.009 Y144.610 E3.41017
G1 X163.229 Y145.223 E3.44934
G1 X163.654 Y146.623 E3.53730
G1 X163.882 Y147.680 E3.60232
G1 X163.907 Y147.897 E3.61542
G1 X164.050 Y149.352 E3.70338
G1 X164.050 Y150.648 E3.78125
G1 X163.882 Y152.320 E3.88229
G1 X163.654 Y153.377 E3.94733
G1 X163.229 Y154.777 E4.03528
G1 X163.011 Y155.387 E4.07422
G1 X162.732 Y155.976 E4.11344
G1 X162.042 Y157.267 E4.20140
G1 X161.457 Y158.174 E4.26634
G1 X160.393 Y159.477 E4.36748
G1 X159.477 Y160.393 E4.44535
G1 X158.346 Y161.321 E4.53331
G1 X158.175 Y161.457 E4.54646
G1 X157.267 Y162.042 E4.61142
G1 X155.976 Y162.732 E4.69938
G1 X155.390 Y163.010 E4.73841
G1 X154.777 Y163.229 E4.77754
G1 X153.377 Y163.654 E4.86550
G1 X152.321 Y163.882 E4.93043
G1 X150.648 Y164.050 E5.03158
G1 X149.352 Y164.050 E5.10945
G1 X147.678 Y163.881 E5.21061
G1 X146.623 Y163.654 E5.27552
G1 X145.223 Y163.229 E5.36348
G1 X144.611 Y163.010 E5.40255
G1 X144.024 Y162.732 E5.44164
G1 X142.733 Y162.042 E5.52960
G1 X141.825 Y161.457 E5.59456
G1 X141.654 Y161.321 E5.60772
G1 X140.523 Y160.393 E5.69568
G1 X139.607 Y159.477 E5.77355
G1 X138.542 Y158.173 E5.87478
G1 X137.958 Y157.267 E5.93962
G1 X137.268 Y155.976 E6.02758
G1 X136.989 Y155.387 E6.06681
G1 X136.771 Y154.777 E6.10574
G1 X136.346 Y153.377 E6.19370
G1 X136.119 Y152.322 E6.25861
G1 X135.950 Y150.648 E6.35978
G1 X135.950 Y149.352 E6.43765
G1 X136.118 Y147.681 E6.53863
G1 X136.346 Y146.623 E6.60372
G1 X136.771 Y145.223 E6.69168
G1 X136.990 Y144.611 E6.73074
G1 X137.268 Y144.024 E6.76984
G1 X137.958 Y142.733 E6.85780
G1 X138.541 Y141.828 E6.92259
G1 X139.607 Y140.523 E7.02388
G1 X140.023 Y140.108 E7.05919
G1 X140.442 Y140.442 F7800.000
G1 X140.863 Y140.021 E7.09498 F1800.000
G1 X142.149 Y138.970 E7.19485
G1 X142.986 Y138.430 E7.25474
G1 X144.276 Y137.740 E7.34270
G1 X144.817 Y137.485 E7.37867
G1 X145.379 Y137.284 E7.41454
G1 X146.779 Y136.859 E7.50250
G1 X147.748 Y136.650 E7.56213
G1 X147.949 Y136.626 E7.57430
G1 X149.405 Y136.483 E7.66226
G1 X150.595 Y136.483 E7.73382
G1 X152.051 Y136.626 E7.82177
G1 X152.252 Y136.650 E7.83393 F1800.000
G1 X153.221 Y136.859 E7.89358
G1 X154.621 Y137.284 E7.98153
G1 X155.184 Y137.485 E8.01744
G1 X155.724 Y137.740 E8.05337
G1 X157.014 Y138.430 E8.14133
G1 X157.849 Y138.968 E8.20103
G1 X159.137 Y140.021 E8.30109
G1 X159.979 Y140.863 E8.37265
G1 X161.032 Y142.152 E8.47273
G1 X161.570 Y142.986 E8.53241
G1 X162.260 Y144.276 E8.62036
G1 X162.514 Y144.815 E8.65619
G1 X162.716 Y145.379 E8.69220
G1 X163.141 Y146.779 E8.78016
G1 X163.351 Y147.750 E8.83991
G1 X163.374 Y147.949 E8.85196
G1 X163.517 Y149.405 E8.93992
G1 X163.517 Y150.595 E9.01148
G1 X163.351 Y152.250 E9.11148
G1 X163.141 Y153.221 E9.17124
G1 X162.716 Y154.621 E9.25919
G1 X162.516 Y155.182 E9.29497
G1 X162.260 Y155.724 E9.33104
G1 X161.570 Y157.014 E9.41899
G1 X161.032 Y157.848 E9.47867
G1 X159.979 Y159.137 E9.57875
G1 X159.137 Y159.979 E9.65031
G1 X158.006 Y160.907 E9.73827
G1 X157.849 Y161.032 E9.75037
G1 X157.014 Y161.570 E9.81007
G1 X155.724 Y162.260 E9.89803
G1 X155.185 Y162.515 E9.93389
G1 X154.621 Y162.716 E9.96987
G1 X153.221 Y163.141 E10.05782
G1 X152.252 Y163.350 E10.11749
G1 X150.595 Y163.517 E10.21758
G1 X149.405 Y163.517 E10.28914
G1 X147.748 Y163.350 E10.38925
G1 X146.779 Y163.141 E10.44890
G1 X145.379 Y162.716 E10.53686
G1 X144.816 Y162.515 E10.57277
G1 X144.276 Y162.260 E10.60870
G1 X142.986 Y161.570 E10.69666
G1 X142.151 Y161.032 E10.75635
G1 X141.994 Y160.907 E10.76846
G1 X140.863 Y159.979 E10.85642
G1 X140.021 Y159.137 E10.92797
G1 X138.967 Y157.847 E11.02815
G1 X138.430 Y157.014 E11.08773
G1 X137.740 Y155.724 E11.17569
G1 X137.484 Y155.182 E11.21175
G1 X137.284 Y154.621 E11.24753
G1 X136.859 Y153.221 E11.33549
G1 X136.650 Y152.252 E11.39514
G1 X136.483 Y150.595 E11.49525
G1 X136.483 Y149.405 E11.56681
G1 X136.649 Y147.751 E11.66673
G1 X136.859 Y146.779 E11.72656
G1 X137.284 Y145.379 E11.81452
G1 X137.485 Y144.816 E11.85043
G1 X137.740 Y144.276 E11.88636
G1 X138.430 Y142.986 E11.97432
G1 X138.966 Y142.153 E12.03386
G1 X140.021 Y140.863 E12.13408
G1 X140.399 Y140.485 E12.16624
G1 X140.819 Y140.819 F7800.000
G1 X141.203 Y140.435 E12.19887 F1800.000
G1 X142.475 Y139.395 E12.29769
G1 X143.238 Y138.902 E12.35231
G1 X144.529 Y138.213 E12.44027
G1 X145.022 Y137.980 E12.47307
G1 X145.534 Y137.796 E12.50579
G1 X146.934 Y137.372 E12.59375
G1 X147.818 Y137.181 E12.64812
G1 X148.002 Y137.159 E12.65923
G1 X149.457 Y137.016 E12.74719
G1 X150.543 Y137.016 E12.81244
G1 X151.998 Y137.159 E12.90039
G1 X152.182 Y137.181 E12.91149 F1800.000
G1 X153.066 Y137.372 E12.96588
G1 X154.466 Y137.796 E13.05383
G1 X154.979 Y137.980 E13.08660
G1 X155.471 Y138.213 E13.11936
G1 X156.762 Y138.902 E13.20731
G1 X157.522 Y139.393 E13.26174
G1 X158.797 Y140.435 E13.36075
G1 X159.565 Y141.203 E13.42600
G1 X160.607 Y142.478 E13.52503
G1 X161.098 Y143.238 E13.57944
G1 X161.787 Y144.529 E13.66740
G1 X162.020 Y145.020 E13.70006
G1 X162.204 Y145.534 E13.73292
G1 X162.628 Y146.934 E13.82087
G1 X162.820 Y147.820 E13.87535
G1 X162.841 Y148.002 E13.88636
G1 X162.984 Y149.457 E13.97432
G1 X162.984 Y150.543 E14.03956
G1 X162.820 Y152.180 E14.13852
G1 X162.628 Y153.066 E14.19300
G1 X162.204 Y154.466 E14.28096
G1 X162.021 Y154.977 E14.31358
G1 X161.787 Y155.471 E14.34648
G1 X161.098 Y156.762 E14.43444
G1 X160.607 Y157.522 E14.48885
G1 X159.565 Y158.797 E14.58788
G1 X158.797 Y159.565 E14.65313
G1 X157.667 Y160.493 E14.74108
G1 X157.522 Y160.607 E14.75214
G1 X156.762 Y161.098 E14.80657
G1 X155.471 Y161.787 E14.89452
G1 X154.980 Y162.020 E14.92723
G1 X154.466 Y162.204 E14.96004
G1 X153.066 Y162.628 E15.04800
G1 X152.182 Y162.819 E15.10240
G1 X150.543 Y162.984 E15.20144
G1 X149.457 Y162.984 E15.26669
G1 X147.818 Y162.819 E15.36574
G1 X146.934 Y162.628 E15.42013
G1 X145.534 Y162.204 E15.50809
G1 X145.021 Y162.020 E15.54085
G1 X144.528 Y161.787 E15.57361
G1 X143.238 Y161.098 E15.66156
G1 X142.478 Y160.607 E15.71599
G1 X142.333 Y160.493 E15.72705
G1 X141.203 Y159.565 E15.81501
G1 X140.435 Y158.797 E15.88025
G1 X139.392 Y157.521 E15.97936
G1 X138.902 Y156.762 E16.03369
G1 X138.213 Y155.471 E16.12165
G1 X137.979 Y154.977 E16.15455
G1 X137.796 Y154.466 E16.18717
G1 X137.372 Y153.066 E16.27513
G1 X137.181 Y152.182 E16.32952
G1 X137.016 Y150.543 E16.42857
G1 X137.016 Y149.457 E16.49382
G1 X137.180 Y147.821 E16.59269
G1 X137.372 Y146.934 E16.64726
G1 X137.796 Y145.534 E16.73521
G1 X137.980 Y145.021 E16.76797
G1 X138.213 Y144.528 E16.80073
G1 X138.902 Y143.238 E16.88869
G1 X139.392 Y142.479 E16.94298
G1 X140.435 Y141.203 E17.04213
G1 X140.776 Y140.862 E17.07113
G1 E15.32113 F2400.00000
G92 E0
G1 X154.311 Y154.311 F7800.000
G1 E1.75000 F2400.00000
G1 X153.387 Y155.070 E1.82191 F1800.000
G1 X152.335 Y155.632 E1.89364
G1 X151.190 Y155.980 E1.96555
G1 X150.000 Y156.097 E2.03746
G1 X148.810 Y155.980 E2.10936
G1 X147.665 Y155.632 E2.18127
G1 X146.613 Y155.070 E2.25300
G1 X145.689 Y154.311 E2.32491
G1 X144.930 Y153.387 E2.39682
G1 X144.368 Y152.335 E2.46855
G1 X144.020 Y151.190 E2.54047
G1 X143.903 Y150.000 E2.61237
G1 X144.020 Y148.810 E2.68427
G1 X144.368 Y147.665 E2.75618
G1 X144.930 Y146.613 E2.82791
G1 X145.689 Y145.689 E2.89982
G1 X146.613 Y144.930 E2.97173
G1 X147.665 Y144.368 E3.04346
G1 X148.810 Y144.020 E3.11538
G1 X150.000 Y143.903 E3.18728
G1 X151.187 Y144.020 E3.25900
G1 X152.335 Y144.368 E3.33111 F1800.000
G1 X153.387 Y144.930 E3.40282
G1 X154.311 Y145.689 E3.47473
G1 X155.070 Y146.613 E3.54664
G1 X155.632 Y147.665 E3.61837
G1 X155.980 Y148.810 E3.69029
G1 X156.097 Y150.000 E3.76219
G1 X155.980 Y151.190 E3.83409
G1 X155.632 Y152.335 E3.90600
G1 X155.070 Y153.387 E3.97773
G1 X154.349 Y154.265 E4.04604
G1 X154.725 Y154.651 F7800.000
G1 X153.686 Y155.518 E4.12741 F1800.000
G1 X152.541 Y156.130 E4.20547
G1 X151.295 Y156.508 E4.28373
G1 X150.000 Y156.635 E4.36198
G1 X148.705 Y156.508 E4.44023
G1 X147.459 Y156.130 E4.51849
G1 X146.314 Y155.518 E4.59656
G1 X145.308 Y154.692 E4.67481
G1 X144.482 Y153.686 E4.75307
G1 X143.870 Y152.541 E4.83114
G1 X143.492 Y151.295 E4.90939
G1 X143.365 Y150.000 E4.98764
G1 X143.492 Y148.705 E5.06589
G1 X143.870 Y147.459 E5.14415
G1 X144.482 Y146.314 E5.22222
G1 X145.308 Y145.308 E5.30047
G1 X146.314 Y144.482 E5.37873
G1 X147.459 Y143.870 E5.45680
G1 X148.705 Y143.492 E5.53505
G1 X150.000 Y143.365 E5.61331
G1 X151.292 Y143.492 E5.69137
G1 X152.541 Y143.870 E5.76982 F1800.000
G1 X153.686 Y144.482 E5.84788
G1 X154.692 Y145.308 E5.92613
G1 X155.518 Y146.314 E6.00439
G1 X156.130 Y147.459 E6.08245
G1 X156.508 Y148.705 E6.16071
G1 X156.635 Y150.000 E6.23896
G1 X156.508 Y151.295 E6.31721
G1 X156.130 Y152.541 E6.39547
G1 X155.518 Y153.686 E6.47354
G1 X154.763 Y154.605 E6.54501
G1 X155.139 Y154.991 F7800.000
G1 X155.072 Y155.072 E6.55136 F1800.000
G1 X153.985 Y155.965 E6.63596
G1 X152.747 Y156.627 E6.72036
G1 X151.400 Y157.036 E6.80496
G1 X150.000 Y157.174 E6.88956
G1 X148.600 Y157.036 E6.97416
G1 X147.253 Y156.627 E7.05876
G1 X146.015 Y155.965 E7.14317
G1 X144.928 Y155.072 E7.22777
G1 X144.035 Y153.985 E7.31237
G1 X143.373 Y152.747 E7.39677
G1 X142.964 Y151.400 E7.48138
G1 X142.826 Y150.000 E7.56597
G1 X142.964 Y148.600 E7.65057
G1 X143.373 Y147.253 E7.73517
G1 X144.035 Y146.015 E7.81958
G1 X144.928 Y144.928 E7.90418
G1 X146.015 Y144.035 E7.98878
G1 X147.253 Y143.373 E8.07318
G1 X148.600 Y142.964 E8.15778
G1 X150.000 Y142.826 E8.24238
G1 X151.397 Y142.964 E8.32679
G1 X152.747 Y143.373 E8.41158 F1800.000
G1 X153.985 Y144.035 E8.49599
G1 X155.072 Y144.928 E8.58059
G1 X155.965 Y146.015 E8.66518
G1 X156.627 Y147.253 E8.74959
G1 X157.036 Y148.600 E8.83419
G1 X157.174 Y150.000 E8.91879
G1 X157.036 Y151.400 E9.00339
G1 X156.627 Y152.747 E9.08799
G1 X155.965 Y153.985 E9.17239
G1 X155.178 Y154.944 E9.24704
G1 X155.035 Y154.974 F7800.000
G1 X154.246 Y146.270 F7800.000
G1 X153.730 Y145.754 E9.29100 F1800.000
G1 X151.796 Y144.580 F7800.000
G1 X155.420 Y148.204 E9.60001 F1800.000
G1 X155.686 Y149.230 E9.66390
G1 X150.770 Y144.314 E10.08308
G1 X149.928 Y144.231 E10.13412
G1 X155.769 Y150.072 E10.63223
G1 X155.709 Y150.771 E10.67452
G1 X149.229 Y144.291 E11.22704
G1 X148.576 Y144.398 E11.26693
G1 X155.602 Y151.424 E11.86604
G1 X155.425 Y152.007 E11.90275
G1 X147.993 Y144.575 E12.53646
G1 X147.457 Y144.798 E12.57148
G1 X155.202 Y152.543 E13.23186
G1 X154.937 Y153.038 E13.26571
G1 X146.962 Y145.063 E13.94573
G1 X146.510 Y145.371 E13.97869
G1 X154.629 Y153.490 E14.67098
G1 X154.287 Y153.907 E14.70352
G1 X146.093 Y145.713 E15.40219
G1 X145.713 Y146.093 E15.43458
G1 X153.907 Y154.287 E16.13325
G1 X153.490 Y154.629 E16.16579
G1 X145.371 Y146.510 E16.85808
G1 X145.063 Y146.962 E16.89103
G1 X153.038 Y154.937 E17.57106
G1 X152.543 Y155.202 E17.60490
G1 X144.798 Y147.457 E18.26529
G1 X144.575 Y147.993 E18.30031
G1 X152.007 Y155.425 E18.93402
G1 X151.424 Y155.602 E18.97073
G1 X144.398 Y148.576 E19.56984
G1 X144.291 Y149.229 E19.60973
G1 X150.771 Y155.709 E20.16224
G1 X150.072 Y155.769 E20.20453
G1 X144.231 Y149.928 E20.70264
G1 X144.314 Y150.770 E20.75369
G1 X149.230 Y155.686 E21.17286
G1 X148.204 Y155.420 E21.23675
G1 X144.580 Y151.796 E21.54578
G1 X145.754 Y153.730 F7800.000
G1 X146.270 Y154.246 E21.58973 F1800.000
; layer change
G1 E19.83973 F2400.00000
G92 E0
G1 Z0.600 F7800.000
; start perimeter
M42 P11 S255
G1 X154.563 Y154.518 F7800.000
G1 E1.75000 F2400.00000
G1 X153.567 Y155.343 E1.81080 F900.000
G1 X152.462 Y155.933 E1.86969
G1 X151.255 Y156.300 E1.92902
G1 X150.000 Y156.424 E1.98833
G1 X148.745 Y156.300 E2.04764
G1 X147.537 Y155.933 E2.10697
G1 X146.433 Y155.343 E2.16586
G1 X145.457 Y154.542 E2.22518
G1 X144.657 Y153.567 E2.28451
G1 X144.067 Y152.462 E2.34340
G1 X143.700 Y151.255 E2.40273
G1 X143.576 Y150.000 E2.46204
G1 X143.700 Y148.745 E2.52135
G1 X144.067 Y147.537 E2.58068
G1 X144.657 Y146.433 E2.63957
G1 X145.457 Y145.457 E2.69889
G1 X146.433 Y144.657 E2.75822
G1 X147.537 Y144.067 E2.81711
G1 X148.745 Y143.700 E2.87644
G1 X150.000 Y143.576 E2.93575
G1 X151.246 Y143.699 E2.99464
G1 X152.455 Y144.064 E3.05398 F900.000
G1 X153.567 Y144.658 E3.11329
G1 X154.543 Y145.458 E3.17260
G1 X155.343 Y146.433 E3.23192
G1 X155.933 Y147.537 E3.29081
G1 X156.300 Y148.745 E3.35014
G1 X156.424 Y150.000 E3.40945
G1 X156.300 Y151.255 E3.46876
G1 X155.933 Y152.462 E3.52809
G1 X155.343 Y153.567 E3.58698
G1 X154.601 Y154.471 E3.64198
G1 X154.887 Y154.783 F7800.000
G1 X154.840 Y154.840 E3.64543 F3000.000
G1 X153.801 Y155.693 E3.70863
G1 X152.624 Y156.322 E3.77139
G1 X151.338 Y156.713 E3.83460
G1 X150.000 Y156.845 E3.89780
G1 X148.662 Y156.713 E3.96100
G1 X147.376 Y156.322 E4.02421
G1 X146.199 Y155.693 E4.08697
G1 X145.160 Y154.840 E4.15018
G1 X144.307 Y153.801 E4.21338
G1 X143.678 Y152.624 E4.27614
G1 X143.287 Y151.338 E4.33935
G1 X143.155 Y150.000 E4.40255
G1 X143.287 Y148.662 E4.46575
G1 X143.678 Y147.376 E4.52896
G1 X144.307 Y146.199 E4.59172
G1 X145.160 Y145.160 E4.65492
G1 X146.199 Y144.307 E4.71813
G1 X147.376 Y143.678 E4.78089
G1 X148.662 Y143.287 E4.84410
G1 X150.000 Y143.155 E4.90730
G1 X151.328 Y143.286 E4.97006
G1 X152.615 Y143.675 E5.03327 F3000.000
G1 X153.801 Y144.307 E5.09647
G1 X154.840 Y145.160 E5.15966
G1 X155.693 Y146.199 E5.22287
G1 X156.322 Y147.376 E5.28563
G1 X156.713 Y148.662 E5.34884
G1 X156.845 Y150.000 E5.41204
G1 X156.713 Y151.338 E5.47523
G1 X156.322 Y152.624 E5.53844
G1 X155.693 Y153.801 E5.60120
G1 X154.925 Y154.737 E5.65814
G1 X155.178 Y155.023 F7800.000
G1 X155.108 Y155.108 E5.66231 F1500.000
G1 X154.011 Y156.008 E5.71575
G1 X152.769 Y156.672 E5.76883
G1 X151.412 Y157.085 E5.82227
G1 X150.000 Y157.224 E5.87572
G1 X148.588 Y157.085 E5.92916
G1 X147.231 Y156.672 E5.98260
G1 X145.989 Y156.008 E6.03568
G1 X144.892 Y155.108 E6.08912
G1 X143.992 Y154.011 E6.14257
G1 X143.328 Y152.769 E6.19565
G1 X142.915 Y151.412 E6.24909
G1 X142.776 Y150.000 E6.30253
G1 X142.915 Y148.588 E6.35597
G1 X143.328 Y147.231 E6.40942
G1 X143.992 Y145.989 E6.46250
G1 X144.892 Y144.892 E6.51594
G1 X145.989 Y143.992 E6.56938
G1 X147.231 Y143.328 E6.62246
G1 X148.588 Y142.915 E6.67591
G1 X150.000 Y142.776 E6.72935
G1 X151.402 Y142.914 E6.78243
G1 X152.760 Y143.324 E6.83587 F1500.000
G1 X154.011 Y143.992 E6.88931
G1 X155.108 Y144.892 E6.94275
G1 X156.008 Y145.989 E6.99620
G1 X156.672 Y147.231 E7.04928
G1 X157.085 Y148.588 E7.10272
G1 X157.224 Y150.000 E7.15616
G1 X157.085 Y151.412 E7.20960
G1 X156.672 Y152.769 E7.26305
G1 X156.008 Y154.011 E7.31612
G1 X155.216 Y154.976 E7.36314
G1 X155.069 Y155.005 F7800.000
G1 X154.522 Y154.057 F7800.000
G1 X154.057 Y154.522 E7.39517 F1200.000
G1 X155.696 Y152.270 F7800.000
G1 X152.270 Y155.696 E7.63087 F1200.000
G1 X151.381 Y155.973 E7.67615
G1 X155.973 Y151.381 E7.99200
G1 X156.104 Y150.637 E8.02874
G1 X150.637 Y156.104 E8.40476
G1 X149.957 Y156.171 E8.43800
G1 X156.171 Y149.957 E8.86541
G1 X156.124 Y149.391 E8.89303
G1 X149.391 Y156.124 E9.35616
