; generated by Slic3r 1.2.9 on 2017-01-31 at 11:45:30

; external perimeters extrusion width = 0.40mm
; perimeters extrusion width = 0.48mm
; infill extrusion width = 0.48mm
; solid infill extrusion width = 0.48mm
; top infill extrusion width = 0.48mm

M107
G28 ; home all axes
G1 Z5 F5000 ; lift nozzle
M42 P4 S0
G21 ; set units to millimeters
G90 ; use absolute coordinates
M82 ; use absolute distances for extrusion
G92 E0
; layer change
G1 E-1.75000 F2400.00000
G92 E0
G1 Z0.200 F7800.000
G1 Z0.300 F7800.000
; start perimeter
M42 P11 S255
G1 Z0.500 F7800.000
G1 X128.067 Y137.073 F7800.000
G1 Z0.300 F7800.000
G1 E1.55000 F2400.00000
G1 X138.311 Y127.566 E2.39032 F1800.000
G1 X138.785 Y127.153 E2.42809
G1 X139.236 Y126.813 E2.46205
G1 X140.033 Y126.318 E2.51845
G1 X140.485 Y126.094 E2.54879
G1 X140.997 Y125.884 E2.58206
G1 X141.611 Y125.685 E2.62088
G1 X142.277 Y125.539 E2.66186
G1 X142.951 Y125.453 E2.70271
G1 X143.786 Y125.431 E2.75293
G1 X157.875 Y125.931 E3.60057 F1800.000
G1 X158.376 Y125.966 E3.63075
G1 X159.345 Y126.123 E3.68982
G1 X160.105 Y126.338 E3.73729
G1 X160.457 Y126.468 E3.75985
G1 X161.258 Y126.836 E3.81287
G1 X161.691 Y127.091 E3.84304
G1 X162.284 Y127.506 E3.88657
G1 X162.926 Y128.060 E3.93756
G1 X163.197 Y128.336 E3.96081
G1 X172.770 Y138.653 E4.80706
G1 X173.063 Y138.989 E4.83381
G1 X173.424 Y139.459 E4.86944
G1 X173.758 Y139.972 E4.90628
G1 X174.050 Y140.507 E4.94293
G1 X174.229 Y140.897 E4.96869
G1 X174.490 Y141.601 E5.01384
G1 X174.681 Y142.345 E5.06004
G1 X174.816 Y143.476 E5.12852
G1 X174.820 Y144.059 E5.16361
G1 X174.318 Y158.141 E6.01079
G1 X174.286 Y158.610 E6.03908
G1 X174.218 Y159.152 E6.07192
G1 X174.107 Y159.686 E6.10469
G1 X173.940 Y160.285 E6.14207
G1 X173.548 Y161.246 E6.20448
G1 X173.334 Y161.650 E6.23196
G1 X172.950 Y162.260 E6.27530
G1 X172.456 Y162.883 E6.32308
G1 X172.138 Y163.220 E6.35096
G1 X171.707 Y163.618 E6.38625
G1 X171.132 Y164.063 E6.42995
G1 X170.464 Y164.482 E6.47738
G1 X169.950 Y164.742 E6.51204
G1 X169.589 Y164.893 E6.53556
G1 X146.447 Y173.764 E8.02565
G1 X145.399 Y174.110 E8.09204
G1 X144.371 Y174.366 E8.15572
G1 X143.376 Y174.522 E8.21631
G1 X142.580 Y174.572 E8.26421
G1 X142.145 Y174.570 E8.29037
G1 X141.658 Y174.538 E8.31976
G1 X140.857 Y174.424 E8.36841
G1 X140.337 Y174.301 E8.40054
G1 X139.823 Y174.143 E8.43283
G1 X138.958 Y173.778 E8.48931
G1 X138.203 Y173.347 E8.54156
G1 X137.542 Y172.857 E8.59102
G1 X137.104 Y172.464 E8.62640
G1 X136.841 Y172.196 E8.64902
G1 X127.178 Y161.790 E9.50283
G1 X126.936 Y161.510 E9.52505
G1 X126.568 Y161.027 E9.56153
G1 X126.038 Y160.162 E9.62258
G1 X125.623 Y159.227 E9.68407
G1 X125.524 Y158.940 E9.70234
G1 X125.285 Y157.968 E9.76250
G1 X125.214 Y157.434 E9.79486
G1 X125.180 Y156.771 E9.83479
G1 X125.689 Y142.387 E10.70018
G1 X125.737 Y141.744 E10.73892
G1 X125.918 Y140.742 E10.80016
G1 X125.987 Y140.477 E10.81661
G1 X126.359 Y139.456 E10.88196
G1 X126.435 Y139.293 E10.89281
G1 X126.621 Y138.925 E10.91754
G1 X127.107 Y138.160 E10.97205
G1 X127.865 Y137.268 E11.04244
G1 X128.024 Y137.114 E11.05571
G1 X128.431 Y137.466 F7800.000
G1 X138.676 Y127.958 E11.89603 F1800.000
G1 X139.127 Y127.566 E11.93195
G1 X139.540 Y127.253 E11.96316
G1 X140.284 Y126.791 E12.01577
G1 X140.704 Y126.583 E12.04399
G1 X141.180 Y126.387 E12.07491
G1 X141.752 Y126.202 E12.11106
G1 X142.365 Y126.067 E12.14881
G1 X142.992 Y125.987 E12.18681
G1 X143.767 Y125.967 E12.23342
G1 X157.856 Y126.466 E13.08106 F1800.000
G1 X158.318 Y126.498 E13.10891
G1 X159.222 Y126.644 E13.16395
G1 X159.931 Y126.844 E13.20825
G1 X160.266 Y126.968 E13.22975
G1 X161.002 Y127.307 E13.27847
G1 X161.409 Y127.546 E13.30682
G1 X161.954 Y127.927 E13.34681
G1 X162.551 Y128.443 E13.39427
G1 X162.804 Y128.700 E13.41596
G1 X172.378 Y139.018 E14.26221
G1 X172.653 Y139.334 E14.28741
G1 X172.985 Y139.766 E14.32015
G1 X173.300 Y140.249 E14.35483
G1 X173.570 Y140.746 E14.38889
G1 X173.738 Y141.111 E14.41301
G1 X173.978 Y141.758 E14.45449
G1 X174.156 Y142.454 E14.49772
G1 X174.281 Y143.500 E14.56106
G1 X174.285 Y144.040 E14.59353
G1 X173.782 Y158.122 E15.44071
G1 X173.752 Y158.566 E15.46748
G1 X173.690 Y159.065 E15.49771
G1 X173.588 Y159.555 E15.52782
G1 X173.431 Y160.118 E15.56297
G1 X173.069 Y161.005 E15.62056
G1 X172.866 Y161.390 E15.64670
G1 X172.512 Y161.953 E15.68670
G1 X172.055 Y162.528 E15.73088
G1 X171.757 Y162.843 E15.75693
G1 X171.361 Y163.209 E15.78935
G1 X170.828 Y163.622 E15.82991
G1 X170.202 Y164.015 E15.87436
G1 X169.729 Y164.254 E15.90620
G1 X169.397 Y164.393 E15.92785
G1 X146.256 Y173.263 E17.41790
G1 X145.255 Y173.594 E17.48128
G1 X144.328 Y173.828 E17.53876
G1 X143.445 Y173.975 E17.59262
G1 X142.564 Y174.036 E17.64568
G1 X142.162 Y174.035 E17.66987
G1 X141.707 Y174.004 E17.69728
G1 X140.960 Y173.899 E17.74266
G1 X140.473 Y173.783 E17.77277
G1 X139.997 Y173.637 E17.80270
G1 X139.192 Y173.296 E17.85525
G1 X138.498 Y172.901 E17.90327
G1 X137.882 Y172.442 E17.94943
G1 X137.479 Y172.082 E17.98194
G1 X137.233 Y171.831 E18.00305
G1 X127.573 Y161.429 E18.85660
G1 X127.347 Y161.167 E18.87739
G1 X127.009 Y160.723 E18.91091
G1 X126.514 Y159.917 E18.96780
G1 X126.127 Y159.047 E19.02502
G1 X126.033 Y158.773 E19.04247
G1 X125.821 Y157.924 E19.09507
G1 X125.755 Y157.453 E19.12366
G1 X125.716 Y156.823 E19.16162
G1 X125.719 Y156.487 E19.18184
G1 X126.224 Y142.406 E20.02897
G1 X126.268 Y141.810 E20.06494
G1 X126.436 Y140.877 E20.12193
G1 X126.504 Y140.619 E20.13797
G1 X126.846 Y139.680 E20.19801
G1 X126.921 Y139.519 E20.20871
G1 X127.091 Y139.181 E20.23147
G1 X127.539 Y138.477 E20.28161
G1 X128.241 Y137.649 E20.34691
G1 X128.388 Y137.507 E20.35919
G1 X128.796 Y137.858 F7800.000
G1 X139.040 Y128.351 E21.19951 F1800.000
G1 X139.468 Y127.979 E21.23357
G1 X140.041 Y127.560 E21.27629
G1 X140.534 Y127.264 E21.31087
G1 X140.987 Y127.043 E21.34114
G1 X141.457 Y126.857 E21.37154
G1 X141.899 Y126.717 E21.39942
G1 X142.548 Y126.580 E21.43929
G1 X143.110 Y126.515 E21.47334
G1 X143.748 Y126.502 E21.51169
G1 X157.898 Y127.004 E22.36298 F1800.000
G1 X158.415 Y127.048 E22.39420
G1 X159.098 Y127.165 E22.43586
G1 X159.328 Y127.222 E22.45008
G1 X160.075 Y127.468 E22.49742
G1 X160.747 Y127.777 E22.54184
G1 X161.126 Y128.002 E22.56836
G1 X161.624 Y128.349 E22.60483
G1 X162.177 Y128.826 E22.64875
G1 X162.412 Y129.065 E22.66888
G1 X171.985 Y139.382 E23.51513
G1 X172.243 Y139.679 E23.53878
G1 X172.546 Y140.072 E23.56863
G1 X172.803 Y140.461 E23.59663
G1 X173.057 Y140.917 E23.62801
G1 X173.247 Y141.325 E23.65509
G1 X173.466 Y141.915 E23.69292
G1 X173.632 Y142.563 E23.73317
G1 X173.746 Y143.525 E23.79137
G1 X173.750 Y144.021 E23.82122
G1 X173.247 Y158.103 E24.66841
G1 X173.219 Y158.522 E24.69365
G1 X173.162 Y158.977 E24.72126
G1 X173.068 Y159.424 E24.74872
G1 X172.922 Y159.952 E24.78164
G1 X172.591 Y160.765 E24.83441
G1 X172.398 Y161.129 E24.85922
G1 X172.073 Y161.646 E24.89589
G1 X171.653 Y162.174 E24.93645
G1 X171.376 Y162.466 E24.96066
G1 X171.016 Y162.800 E24.99022
G1 X170.524 Y163.182 E25.02764
G1 X169.939 Y163.548 E25.06911
G1 X169.509 Y163.766 E25.09815
G1 X169.205 Y163.893 E25.11791
G1 X146.065 Y172.763 E26.60791
G1 X145.112 Y173.078 E26.66830
G1 X144.219 Y173.303 E26.72364
G1 X143.384 Y173.443 E26.77458
G1 X142.548 Y173.501 E26.82493
G1 X142.179 Y173.500 E26.84715
G1 X141.757 Y173.471 E26.87258
G1 X141.063 Y173.373 E26.91468
G1 X140.609 Y173.265 E26.94276
G1 X140.170 Y173.130 E26.97035
G1 X139.426 Y172.814 E27.01897
G1 X138.793 Y172.454 E27.06276
G1 X138.221 Y172.028 E27.10561
G1 X137.626 Y171.467 E27.15483
G1 X127.968 Y161.067 E28.00813
G1 X127.450 Y160.419 E28.05801
G1 X126.991 Y159.672 E28.11074
G1 X126.632 Y158.868 E28.16369
G1 X126.542 Y158.606 E28.18033
G1 X126.349 Y157.832 E28.22829
G1 X126.288 Y157.399 E28.25461
G1 X126.252 Y156.818 E28.28962
G1 X126.254 Y156.506 E28.30835
G1 X126.759 Y142.425 E29.15549
G1 X126.800 Y141.875 E29.18868
G1 X126.955 Y141.012 E29.24141
G1 X127.021 Y140.760 E29.25704
G1 X127.406 Y139.745 E29.32230
G1 X127.562 Y139.437 E29.34309
G1 X127.970 Y138.794 E29.38885
G1 X128.618 Y138.030 E29.44907
G1 X128.752 Y137.900 E29.46035
G1 E27.71035 F2400.00000
G92 E0
G1 Z0.500 F7800.000
G1 X166.248 Y157.276 F7800.000
G1 Z0.300 F7800.000
G1 E1.55000 F2400.00000
G1 X165.910 Y157.098 E1.57296 F1800.000
G1 X165.593 Y156.896 E1.59557
G1 X165.239 Y156.631 E1.62216
G1 X164.694 Y156.156 E1.66559
G1 X163.248 Y154.724 E1.78795
G1 X162.769 Y154.311 E1.82601
G1 X162.339 Y154.009 E1.85757
G1 X162.013 Y153.820 E1.88023
G1 X161.607 Y153.640 E1.90696
G1 X161.146 Y153.502 E1.93586
G1 X160.790 Y153.435 E1.95765
G1 X160.168 Y153.402 E1.99514
G1 X159.793 Y153.433 E2.01776
G1 X159.274 Y153.556 E2.04983
G1 X158.827 Y153.753 E2.07920
G1 X158.379 Y154.068 E2.11209
G1 X158.093 Y154.355 E2.13648
G1 X157.870 Y154.653 E2.15886
G1 X157.658 Y155.044 E2.18557
G1 X157.522 Y155.396 E2.20830
G1 X157.420 Y155.793 E2.23290
G1 X157.342 Y156.355 E2.26701
G1 X157.322 Y157.005 E2.30611
G1 X157.374 Y157.558 E2.33956
G1 X157.461 Y157.974 E2.36507
G1 X157.715 Y158.670 E2.40964
G1 X157.826 Y159.045 E2.43316
G1 X158.020 Y159.936 E2.48799
G1 X157.436 Y159.970 E2.52314
G1 X157.033 Y160.056 E2.54791
G1 X156.736 Y160.173 E2.56712
G1 X155.853 Y160.149 E2.62025
G1 X155.174 Y160.185 E2.66112
G1 X154.916 Y159.874 E2.68540
G1 X154.570 Y159.546 E2.71408
G1 X154.205 Y159.269 E2.74163
G1 X153.762 Y159.025 E2.77204
G1 X153.172 Y158.870 E2.80871
G1 X152.617 Y158.882 E2.84207
G1 X152.078 Y159.023 E2.87560
G1 X151.640 Y159.234 E2.90482
G1 X151.135 Y159.565 E2.94110
G1 X150.571 Y160.050 E2.98585
G1 X150.272 Y160.355 E3.01154
G1 X149.866 Y160.829 E3.04904
G1 X148.775 Y162.313 E3.15979
G1 X148.162 Y163.034 E3.21671
G1 X147.754 Y163.448 E3.25163
G1 X147.333 Y163.835 E3.28601
G1 X146.403 Y164.616 E3.35905
G1 X145.928 Y164.987 E3.39530
G1 X145.229 Y165.484 E3.44682
G1 X144.781 Y165.761 E3.47854
G1 X144.366 Y165.982 E3.50680
G1 X143.899 Y166.196 E3.53770
G1 X143.233 Y166.436 E3.58024
G1 X143.089 Y166.261 E3.59390
G1 X143.287 Y165.935 E3.61682
G1 X143.519 Y165.603 E3.64114
G1 X144.058 Y164.969 E3.69119
G1 X145.641 Y163.366 E3.82668
G1 X145.996 Y162.940 E3.85996
G1 X146.263 Y162.549 E3.88846
G1 X146.552 Y161.994 E3.92611
G1 X146.690 Y161.606 E3.95082
G1 X146.817 Y161.029 E3.98635
G1 X146.845 Y160.341 E4.02780
G1 X146.806 Y159.968 E4.05031
G1 X146.654 Y159.409 E4.08517
G1 X146.429 Y158.959 E4.11538
G1 X146.141 Y158.577 E4.14415
G1 X145.754 Y158.225 E4.17561
G1 X145.493 Y158.055 E4.19434
G1 X145.156 Y157.883 E4.21710
G1 X144.727 Y157.731 E4.24445
G1 X144.248 Y157.630 E4.27387
G1 X143.900 Y157.590 E4.29498
G1 X143.358 Y157.565 E4.32757
G1 X142.662 Y157.598 E4.36946
G1 X141.932 Y157.695 E4.41377
G1 X140.571 Y157.920 E4.49671
G1 X140.049 Y157.974 E4.52825
G1 X139.606 Y157.996 E4.55491
G1 X138.865 Y157.986 E4.59944
G1 X137.622 Y157.898 E4.67439
G1 X136.751 Y157.797 E4.72710
G1 X135.917 Y157.658 E4.77797
G1 X135.529 Y157.572 E4.80184
G1 X134.681 Y157.313 E4.85513
G1 X134.188 Y157.105 E4.88735
G1 X133.522 Y156.773 E4.93207
G1 X134.149 Y156.587 E4.97138
G1 X134.605 Y156.512 E4.99916
G1 X135.043 Y156.469 E5.02562
G1 X135.532 Y156.449 E5.05502
G1 X137.682 Y156.450 E5.18428
G1 X138.431 Y156.367 E5.22961
G1 X138.975 Y156.221 E5.26348
G1 X139.402 Y156.045 E5.29124
G1 X139.776 Y155.836 E5.31701
G1 X140.137 Y155.579 E5.34367
G1 X140.543 Y155.211 E5.37663
G1 X140.880 Y154.808 E5.40817
G1 X141.129 Y154.400 E5.43692
G1 X141.330 Y153.882 E5.47033
G1 X141.412 Y153.331 E5.50382
G1 X141.351 Y152.710 E5.54136
G1 X141.132 Y152.093 E5.58075
G1 X140.787 Y151.512 E5.62134
G1 X140.336 Y150.956 E5.66438
G1 X139.916 Y150.532 E5.70026
G1 X139.475 Y150.150 E5.73536
G1 X137.812 Y148.921 E5.85967
G1 X137.193 Y148.382 E5.90905
G1 X136.866 Y148.060 E5.93663
G1 X136.180 Y147.300 E5.99817
G1 X135.607 Y146.610 E6.05208
G1 X135.101 Y145.951 E6.10208
G1 X134.757 Y145.453 E6.13842
G1 X134.445 Y144.940 E6.17457
G1 X134.221 Y144.508 E6.20382
G1 X134.059 Y144.146 E6.22763
G1 X133.884 Y143.677 E6.25772
G1 X133.746 Y143.198 E6.28771
G1 X134.188 Y143.449 E6.31826
G1 X134.754 Y143.849 E6.35999
G1 X135.374 Y144.392 E6.40950
G1 X136.935 Y145.932 E6.54139
G1 X137.406 Y146.314 E6.57781
G1 X137.982 Y146.671 E6.61856
G1 X138.452 Y146.876 E6.64940
G1 X138.902 Y147.004 E6.67754
G1 X139.368 Y147.078 E6.70590
G1 X139.926 Y147.090 E6.73946
G1 X140.350 Y147.039 E6.76512
G1 X140.927 Y146.869 E6.80130
G1 X141.383 Y146.613 E6.83277
G1 X141.749 Y146.318 E6.86102
G1 X142.166 Y145.807 E6.90064
G1 X142.475 Y145.136 E6.94511
G1 X142.622 Y144.487 E6.98507
G1 X142.677 Y143.919 E7.01943
G1 X142.680 Y143.276 E7.05807
G1 X142.630 Y142.697 E7.09300
G1 X142.316 Y140.715 E7.21368
G1 X142.260 Y139.987 E7.25754
G1 X142.253 Y139.610 E7.28023
G1 X142.302 Y138.452 E7.34990
G1 X142.370 Y137.688 E7.39605
G1 X142.463 Y136.936 E7.44161
G1 X142.609 Y136.072 E7.49428
G1 X142.803 Y135.319 E7.54104
G1 X142.993 Y134.781 E7.57533
G1 X143.299 Y134.115 E7.61942
G1 X143.488 Y133.784 E7.64233
G1 X143.612 Y134.186 E7.66765
G1 X143.730 Y134.787 E7.70447
G1 X143.788 Y135.413 E7.74225
G1 X143.805 Y136.066 E7.78155
G1 X143.793 Y137.732 E7.88170
G1 X143.820 Y138.206 E7.91023
G1 X143.896 Y138.753 E7.94346
G1 X144.093 Y139.404 E7.98436
G1 X144.274 Y139.788 E8.00988
G1 X144.597 Y140.292 E8.04589
G1 X145.111 Y140.861 E8.09201
G1 X145.502 Y141.167 E8.12181
G1 X145.809 Y141.352 E8.14338
G1 X146.164 Y141.511 E8.16678
G1 X146.759 Y141.652 E8.20353
G1 X147.486 Y141.611 E8.24729
G1 X148.110 Y141.396 E8.28699
G1 X148.641 Y141.095 E8.32368
G1 X149.227 Y140.636 E8.36842
G1 X149.672 Y140.203 E8.40578
G1 X150.040 Y139.786 E8.43923
G1 X151.439 Y137.916 E8.57961
G1 X151.730 Y137.579 E8.60638
G1 X152.155 Y137.138 E8.64320
G1 X152.985 Y136.388 E8.71049
G1 X153.704 Y135.795 E8.76652
G1 X154.162 Y135.446 E8.80111
G1 X154.868 Y134.956 E8.85281
G1 X155.240 Y134.728 E8.87907
G1 X155.945 Y134.369 E8.92660
G1 X156.535 Y134.138 E8.96469
G1 X157.070 Y133.986 E8.99816
G1 X156.694 Y134.595 E9.04124
G1 X156.333 Y135.081 E9.07762
G1 X155.793 Y135.686 E9.12639
G1 X154.551 Y136.928 E9.23196
G1 X154.119 Y137.414 E9.27107
G1 X153.744 Y137.936 E9.30972
G1 X153.432 Y138.538 E9.35050
G1 X153.243 Y139.164 E9.38979
G1 X153.179 Y139.557 E9.41372
G1 X153.157 Y140.079 E9.44517
G1 X153.195 Y140.529 E9.47231
G1 X153.351 Y141.096 E9.50769
G1 X153.610 Y141.592 E9.54127
G1 X153.851 Y141.901 E9.56487
G1 X154.143 Y142.189 E9.58951
G1 X154.428 Y142.391 E9.61054
G1 X154.708 Y142.550 E9.62988
G1 X155.175 Y142.735 E9.66007
G1 X155.579 Y142.835 E9.68510
G1 X156.137 Y142.909 E9.71893
G1 X156.677 Y142.930 E9.75145
G1 X157.305 Y142.901 E9.78927
G1 X158.145 Y142.789 E9.84021
G1 X159.466 Y142.572 E9.92071
G1 X160.062 Y142.515 E9.95666
G1 X160.528 Y142.499 E9.98470
G1 X161.145 Y142.510 E10.02185
G1 X162.095 Y142.572 E10.07905
G1 X163.234 Y142.697 E10.14798
G1 X164.055 Y142.833 E10.19797
G1 X164.557 Y142.946 E10.22896
G1 X165.018 Y143.080 E10.25777
G1 X165.549 Y143.274 E10.29178
G1 X165.966 Y143.460 E10.31922
G1 X166.472 Y143.735 E10.35384
G1 X166.008 Y143.872 E10.38287
G1 X165.357 Y143.990 E10.42270
G1 X164.718 Y144.041 E10.46122
G1 X162.283 Y144.049 E10.60764
G1 X161.618 Y144.123 E10.64783
G1 X161.120 Y144.245 E10.67870
G1 X160.620 Y144.441 E10.71098
G1 X160.190 Y144.686 E10.74072
G1 X159.873 Y144.915 E10.76424
G1 X159.447 Y145.306 E10.79900
G1 X159.199 Y145.591 E10.82169
G1 X158.887 Y146.072 E10.85617
G1 X158.670 Y146.631 E10.89227
G1 X158.589 Y147.254 E10.93001
G1 X158.699 Y147.975 E10.97387
G1 X158.986 Y148.618 E11.01621
G1 X159.343 Y149.151 E11.05479
G1 X159.714 Y149.586 E11.08917
G1 X160.000 Y149.879 E11.11378
G1 X160.478 Y150.302 E11.15214
G1 X162.089 Y151.495 E11.27269
G1 X162.766 Y152.073 E11.32621
G1 X163.186 Y152.486 E11.36161
G1 X163.630 Y152.971 E11.40114
G1 X164.266 Y153.724 E11.46040
G1 X164.855 Y154.480 E11.51803
G1 X165.207 Y154.981 E11.55483
G1 X165.518 Y155.484 E11.59041
G1 X165.793 Y156.011 E11.62616
G1 X165.958 Y156.380 E11.65042
G1 X166.141 Y156.889 E11.68297
G1 X166.232 Y157.218 E11.70352
G1 X166.883 Y157.993 F7800.000
G1 X166.478 Y157.929 E11.72823 F1800.000
G1 X166.193 Y157.833 E11.74629
G1 X165.640 Y157.562 E11.78329
G1 X165.288 Y157.337 E11.80843
