; generated by Slic3r 1.2.9 on 2017-01-31 at 16:23:48

; external perimeters extrusion width = 0.40mm
; perimeters extrusion width = 0.48mm
; infill extrusion width = 0.48mm
; solid infill extrusion width = 0.48mm
; top infill extrusion width = 0.48mm

M107
G28 ; home all axes
G1 Z5 F5000 ; lift nozzle
M42 P4 S0
G21 ; set units to millimeters
G90 ; use absolute coordinates
M82 ; use absolute distances for extrusion
G92 E0
; layer change
G1 E-1.75000 F2400.00000
G92 E0
G1 Z0.200 F7800.000
G1 Z0.300 F7800.000
; start perimeter
M42 P11 S255
G1 Z0.500 F7800.000
G1 X125.443 Y125.180 F7800.000
G1 Z0.300 F7800.000
G1 E1.55000 F2400.00000
G1 X127.810 Y123.746 E1.71642 F1800.000
G1 X128.365 Y123.576 E1.75128
G1 X130.029 Y123.357 E1.85220
G1 X136.099 Y123.342 E2.21720
G1 X169.917 Y123.346 E4.25049
G1 X170.656 Y123.388 E4.29497 F1800.000
G1 X172.952 Y124.075 E4.43910
G1 X174.836 Y125.484 E4.58056
G1 X176.082 Y127.406 E4.71826
G1 X176.475 Y128.674 E4.79803
G1 X176.621 Y130.008 E4.87875
G1 X176.630 Y131.280 E4.95523
G1 X176.647 Y151.888 E6.19430
G1 X176.631 Y166.925 E7.09839
G1 X176.609 Y170.000 E7.28330
G1 X176.581 Y170.556 E7.31676
G1 X176.499 Y171.159 E7.35330
G1 X175.695 Y173.345 E7.49338
G1 X174.213 Y175.091 E7.63108
G1 X172.139 Y176.257 E7.77412
G1 X171.596 Y176.420 E7.80821
G1 X170.046 Y176.630 E7.90224
G1 X138.382 Y176.652 E9.80604
G1 X130.001 Y176.633 E10.30995
G1 X128.545 Y176.460 E10.39814
G1 X126.428 Y175.584 E10.53584
G1 X124.170 Y173.168 E10.73470
G1 X124.137 Y173.107 E10.73884
G1 X123.333 Y169.978 E10.93307
G1 X123.306 Y163.909 E11.29797
G1 X123.306 Y152.940 E11.95747
G1 X123.312 Y133.031 E13.15452
G1 X123.333 Y130.003 E13.33661
G1 X123.881 Y127.422 E13.49522
G1 X124.073 Y127.016 E13.52225
G1 X125.407 Y125.228 E13.65634
G1 X125.876 Y125.509 F7800.000
G1 X127.986 Y124.252 E13.80396 F1800.000
G1 X128.501 Y124.094 E13.83639
G1 X130.030 Y123.893 E13.92913
G1 X136.099 Y123.877 E14.29402
G1 X169.917 Y123.882 E16.32731
G1 X170.598 Y123.920 E16.36831 F1800.000
G1 X172.708 Y124.551 E16.50075
G1 X174.506 Y125.917 E16.63646
G1 X175.950 Y128.780 E16.82925
G1 X176.085 Y130.012 E16.90379
G1 X176.094 Y131.281 E16.98005
G1 X176.106 Y163.313 E18.90598
G1 X176.073 Y169.996 E19.30784
G1 X176.047 Y170.509 E19.33868
G1 X175.965 Y171.101 E19.37467
G1 X175.186 Y173.153 E19.50663
G1 X173.728 Y174.794 E19.63859
G1 X171.965 Y175.750 E19.75919
G1 X171.462 Y175.902 E19.79077
G1 X170.038 Y176.094 E19.87718
G1 X138.382 Y176.117 E21.78049
G1 X130.005 Y176.097 E22.28414
G1 X128.660 Y175.937 E22.36557
G1 X126.639 Y175.083 E22.49753
G1 X124.641 Y172.912 E22.67493
G1 X124.608 Y172.851 E22.67907
G1 X123.869 Y169.976 E22.85755
G1 X123.842 Y163.909 E23.22235
G1 X123.842 Y152.940 E23.88181
G1 X123.848 Y133.032 E25.07882
G1 X123.869 Y130.007 E25.26067
G1 X124.373 Y127.634 E25.40652
G1 X124.551 Y127.257 E25.43163
G1 X125.840 Y125.557 E25.55990
G1 X126.308 Y125.842 F7800.000
G1 X128.161 Y124.759 E25.68897 F1800.000
G1 X128.638 Y124.612 E25.71897
G1 X130.032 Y124.429 E25.80352
G1 X136.099 Y124.413 E26.16831
G1 X169.917 Y124.418 E28.20160
G1 X170.540 Y124.453 E28.23912 F1800.000
G1 X172.464 Y125.028 E28.35988
G1 X174.172 Y126.347 E28.48958
G1 X175.425 Y128.886 E28.65982
G1 X175.549 Y130.016 E28.72817
G1 X175.559 Y131.281 E28.80422
G1 X175.571 Y163.312 E30.73011
G1 X175.537 Y169.992 E31.13173
G1 X175.514 Y170.461 E31.15996
G1 X175.438 Y171.005 E31.19298
G1 X174.678 Y172.957 E31.31893
G1 X173.246 Y174.487 E31.44489
G1 X171.756 Y175.255 E31.54569
G1 X171.328 Y175.383 E31.57257
G1 X170.029 Y175.559 E31.65136
G1 X138.379 Y175.581 E33.55435
G1 X130.009 Y175.562 E34.05758
G1 X128.776 Y175.414 E34.13223
G1 X126.854 Y174.582 E34.25819
G1 X125.111 Y172.655 E34.41437
G1 X125.078 Y172.595 E34.41851
G1 X124.405 Y169.974 E34.58125
G1 X124.377 Y163.908 E34.94596
G1 X124.377 Y152.940 E35.60536
G1 X124.383 Y133.032 E36.80233
G1 X124.404 Y130.012 E36.98395
G1 X124.865 Y127.847 E37.11703
G1 X125.030 Y127.498 E37.14024
G1 X126.271 Y125.889 E37.26241
G1 E35.51241 F2400.00000
G92 E0
G1 Z0.500 F7800.000
G1 X168.635 Y168.658 F7800.000
G1 Z0.300 F7800.000
G1 E1.55000 F2400.00000
G1 X157.416 Y168.659 E2.22454 F1800.000
G1 X155.220 Y168.618 E2.35661
G1 X150.160 Y168.651 E2.66086
G1 X148.987 Y168.565 E2.73159
G1 X148.963 Y168.542 E2.73357
G1 X148.354 Y168.310 E2.77280
G1 X147.482 Y168.321 E2.82524
G1 X146.912 Y168.399 E2.85979
G1 X146.368 Y168.371 E2.89254
G1 X145.991 Y168.384 E2.91524
G1 X145.433 Y168.448 E2.94903
G1 X145.206 Y168.528 E2.96347
G1 X144.973 Y168.575 E2.97775
G1 X144.506 Y168.628 E3.00601
G1 X143.270 Y168.659 E3.08037
G1 X134.260 Y168.673 E3.62208
G1 X131.310 Y168.660 E3.79947
G1 X131.284 Y163.892 E4.08616
G1 X131.293 Y158.383 E4.41739
G1 X131.322 Y155.104 E4.61456
G1 X131.284 Y152.498 E4.77124
G1 X131.307 Y150.056 E4.91807
G1 X131.334 Y149.371 E4.95929
G1 X131.324 Y145.408 E5.19759
G1 X131.366 Y144.553 E5.24906
G1 X131.359 Y143.891 E5.28885
G1 X131.768 Y142.538 E5.37384
G1 X131.781 Y139.869 E5.53429
G1 X131.825 Y138.579 E5.61190
G1 X131.815 Y137.555 E5.67350
G1 X131.747 Y136.150 E5.75805
G1 X131.512 Y135.084 E5.82371
G1 X131.381 Y135.017 E5.83258
G1 X131.351 Y134.779 E5.84700
G1 X131.337 Y134.177 E5.88321
G1 X131.290 Y133.521 E5.92276
G1 X131.303 Y131.332 E6.05433
G1 X136.577 Y131.320 E6.37143
G1 X137.303 Y131.347 E6.41509
G1 X141.336 Y131.338 E6.65760
G1 X142.134 Y131.367 E6.70559
G1 X144.526 Y131.331 E6.84944
G1 X146.262 Y131.330 E6.95383
G1 X147.443 Y131.342 E7.02484
G1 X148.124 Y131.388 E7.06584
G1 X150.665 Y131.399 E7.21861
G1 X151.962 Y131.371 E7.29662
G1 X153.015 Y131.403 E7.35998
G1 X153.640 Y131.388 E7.39753
G1 X154.307 Y131.330 E7.43785
G1 X158.539 Y131.330 E7.69225
G1 X159.531 Y131.336 E7.75192
G1 X160.219 Y131.397 E7.79344
G1 X161.462 Y131.429 E7.86820
G1 X162.782 Y131.345 E7.94771
G1 X164.149 Y131.371 E8.02994
G1 X168.652 Y131.328 E8.30067
G1 X168.639 Y148.675 E9.34367
G1 X168.668 Y152.410 E9.56827
G1 X168.640 Y152.986 E9.60294
G1 X168.628 Y154.340 E9.68431
G1 X168.664 Y163.304 E10.22329
G1 X168.639 Y165.211 E10.33794
G1 X168.652 Y166.990 E10.44494
G1 X168.636 Y168.598 E10.54161
G1 X169.166 Y169.192 F7800.000
G1 X157.411 Y169.195 E11.24834 F1800.000
G1 X155.217 Y169.154 E11.38030
G1 X150.147 Y169.186 E11.68513
G1 X149.737 Y169.164 E11.70979
G1 X149.348 Y169.117 E11.73335
G1 X148.753 Y169.091 E11.76916
G1 X148.664 Y169.001 E11.77676
G1 X148.259 Y168.847 E11.80287
G1 X147.522 Y168.856 E11.84718
G1 X146.935 Y168.937 E11.88278
G1 X146.364 Y168.907 E11.91717
G1 X146.031 Y168.919 E11.93719
G1 X145.554 Y168.974 E11.96607
G1 X145.348 Y169.046 E11.97917
G1 X145.056 Y169.105 E11.99710
G1 X144.543 Y169.162 E12.02814
G1 X143.277 Y169.195 E12.10428
G1 X134.259 Y169.209 E12.64647
G1 X130.775 Y169.194 E12.85598
G1 X130.770 Y165.711 E13.06540
G1 X130.749 Y163.895 E13.17457
G1 X130.758 Y158.380 E13.50613
G1 X130.787 Y155.105 E13.70304
G1 X130.748 Y152.500 E13.85973
G1 X130.771 Y150.043 E14.00743
G1 X130.798 Y149.361 E14.04846
G1 X130.789 Y145.396 E14.28691
G1 X130.830 Y144.543 E14.33825
G1 X130.821 Y143.623 E14.39357
G1 X130.876 Y143.638 E14.39702
G1 X131.232 Y142.457 E14.47117
G1 X131.245 Y139.859 E14.62742
G1 X131.289 Y138.572 E14.70480
G1 X131.280 Y137.570 E14.76507
G1 X131.214 Y136.221 E14.84627
G1 X131.044 Y135.447 E14.89395
G1 X130.884 Y135.366 E14.90472
G1 X130.817 Y134.818 E14.93788
G1 X130.801 Y134.202 E14.97494
G1 X130.754 Y133.538 E15.01498
G1 X130.771 Y130.798 E15.17972
G1 X136.587 Y130.785 E15.52939
G1 X137.312 Y130.812 E15.57305
G1 X141.345 Y130.802 E15.81555
G1 X142.140 Y130.831 E15.86334
G1 X144.522 Y130.795 E16.00660
G1 X146.265 Y130.795 E16.11139
G1 X147.464 Y130.807 E16.18349
G1 X148.143 Y130.853 E16.22439
G1 X150.660 Y130.863 E16.37573
G1 X151.964 Y130.835 E16.45417
G1 X153.017 Y130.867 E16.51750
G1 X153.610 Y130.853 E16.55314
G1 X154.284 Y130.794 E16.59384
G1 X158.541 Y130.795 E16.84976
G1 X159.556 Y130.801 E16.91083
G1 X160.249 Y130.862 E16.95267
G1 X161.452 Y130.893 E17.02500
G1 X162.770 Y130.809 E17.10440
G1 X164.151 Y130.836 E17.18746
G1 X169.184 Y130.791 E17.49006
G1 X169.174 Y148.673 E18.56523
G1 X169.204 Y152.421 E18.79061
G1 X169.176 Y153.002 E18.82555
G1 X169.163 Y154.341 E18.90607
G1 X169.199 Y163.306 E19.44510
G1 X169.175 Y165.212 E19.55970
G1 X169.188 Y166.991 E19.66666
G1 X169.166 Y169.132 E19.79537
G1 X169.696 Y169.725 F7800.000
G1 X157.406 Y169.730 E20.53428 F1800.000
G1 X155.214 Y169.689 E20.66614
G1 X150.134 Y169.722 E20.97156
G1 X149.691 Y169.698 E20.99823
G1 X149.305 Y169.652 E21.02163
G1 X148.702 Y169.625 E21.05789
G1 X148.442 Y169.538 E21.07438
G1 X148.365 Y169.460 E21.08093
G1 X148.164 Y169.384 E21.09391
G1 X147.562 Y169.391 E21.13009
G1 X146.958 Y169.474 E21.16675
G1 X146.359 Y169.443 E21.20278
G1 X146.071 Y169.453 E21.22011
G1 X145.675 Y169.499 E21.24408
G1 X145.491 Y169.564 E21.25584
G1 X145.216 Y169.626 E21.27279
G1 X144.580 Y169.697 E21.31127
G1 X143.284 Y169.730 E21.38919
G1 X134.259 Y169.744 E21.93186
G1 X130.240 Y169.727 E22.17348
G1 X130.235 Y165.714 E22.41475
G1 X130.213 Y163.898 E22.52397
G1 X130.222 Y158.378 E22.85587
G1 X130.251 Y155.107 E23.05252
G1 X130.213 Y152.501 E23.20921
G1 X130.236 Y150.030 E23.35778
G1 X130.263 Y149.351 E23.39863
G1 X130.253 Y145.383 E23.63722
G1 X130.294 Y144.532 E23.68844
G1 X130.281 Y143.189 E23.76922
G1 X130.291 Y142.916 E23.78564
G1 X130.515 Y142.979 E23.79965
G1 X130.697 Y142.377 E23.83747
G1 X130.710 Y139.848 E23.98952
G1 X130.754 Y138.566 E24.06667
G1 X130.744 Y137.586 E24.12560
G1 X130.682 Y136.292 E24.20347
G1 X130.575 Y135.810 E24.23316
G1 X130.387 Y135.715 E24.24583
G1 X130.282 Y134.858 E24.29773
G1 X130.266 Y134.228 E24.33563
G1 X130.219 Y133.555 E24.37616
G1 X130.238 Y130.264 E24.57407
G1 X136.596 Y130.249 E24.95632
G1 X137.322 Y130.276 E24.99998
G1 X141.355 Y130.266 E25.24247
G1 X142.145 Y130.295 E25.29005
G1 X144.518 Y130.260 E25.43272
G1 X146.268 Y130.259 E25.53792
G1 X147.485 Y130.271 E25.61111
G1 X148.162 Y130.317 E25.65192
G1 X150.655 Y130.328 E25.80182
G1 X151.967 Y130.299 E25.88068
G1 X153.019 Y130.331 E25.94398
G1 X153.580 Y130.318 E25.97772
G1 X154.260 Y130.258 E26.01879
G1 X158.542 Y130.259 E26.27624
G1 X159.581 Y130.266 E26.33871
G1 X160.280 Y130.327 E26.38086
G1 X161.442 Y130.357 E26.45077
G1 X162.758 Y130.273 E26.53006
G1 X164.153 Y130.300 E26.61395
G1 X169.715 Y130.254 E26.94839
G1 X169.710 Y148.671 E28.05573
G1 X169.740 Y152.432 E28.28189
G1 X169.711 Y153.018 E28.31711
G1 X169.699 Y154.342 E28.39677
G1 X169.735 Y163.309 E28.93586
G1 X169.710 Y165.214 E29.05041
G1 X169.723 Y166.992 E29.15732
G1 X169.696 Y169.665 E29.31806
G1 X169.350 Y169.524 F7800.000
G1 X168.242 Y168.261 F7800.000
G1 X168.247 Y167.831 E29.34394 F1800.000
G1 X167.816 Y168.261 E29.38054
G1 X168.242 Y168.261 E29.40616
G1 X168.247 Y165.856 F7800.000
G1 X168.243 Y165.268 E29.44152 F1800.000
G1 X167.670 Y165.840 E29.49018
G1 X166.580 Y165.548 E29.55803
G1 X165.269 Y166.859 E29.66951
G1 X165.561 Y167.949 E29.73737
G1 X165.249 Y168.261 E29.76393
G1 X165.841 Y168.261 E29.79955
G1 X165.858 Y168.245 E29.80091
G1 X165.917 Y168.261 E29.80464
G1 X167.224 Y168.261 E29.88319
G1 X168.253 Y167.232 E29.97068
G1 X167.967 Y166.136 E30.03879
G1 X168.247 Y165.856 E30.06263
G1 X168.254 Y160.214 F7800.000
G1 X168.026 Y160.153 E30.07686 F1800.000
G1 X166.715 Y161.464 E30.18833
G1 X167.007 Y162.554 E30.25619
G1 X165.696 Y163.865 E30.36767
G1 X164.606 Y163.573 E30.43552
G1 X163.295 Y164.884 E30.54700
G1 X163.587 Y165.974 E30.61486
G1 X162.276 Y167.285 E30.72634
G1 X161.186 Y166.993 E30.79419
G1 X159.917 Y168.262 E30.90206
G1 X162.754 Y168.262 E31.07265
G1 X162.572 Y167.582 E31.11498
G1 X163.883 Y166.271 E31.22645
G1 X164.973 Y166.563 E31.29431
G1 X166.284 Y165.252 E31.40579
G1 X165.992 Y164.162 E31.47364
G1 X167.303 Y162.850 E31.58512
G1 X168.266 Y163.109 E31.64506
G1 X168.254 Y160.214 E31.81908
G1 X168.245 Y157.959 F7800.000
G1 X168.243 Y157.369 E31.85455 F1800.000
G1 X167.141 Y158.471 E31.94822
G1 X166.051 Y158.179 E32.01608
G1 X164.740 Y159.490 E32.12756
G1 X165.032 Y160.580 E32.19541
G1 X163.721 Y161.891 E32.30689
G1 X162.631 Y161.599 E32.37475
G1 X161.320 Y162.910 E32.48623
G1 X161.612 Y164.000 E32.55408
G1 X160.301 Y165.311 E32.66556
G1 X159.211 Y165.019 E32.73342
G1 X157.900 Y166.330 E32.84489
G1 X158.192 Y167.420 E32.91275
G1 X157.351 Y168.261 E32.98427
G1 X157.942 Y168.262 E33.01981
G1 X158.488 Y167.716 E33.06624
G1 X159.578 Y168.008 E33.13410
G1 X160.889 Y166.697 E33.24558
G1 X160.597 Y165.607 E33.31343
G1 X161.908 Y164.296 E33.42491
G1 X162.998 Y164.588 E33.49277
G1 X164.310 Y163.277 E33.60425
G1 X164.017 Y162.187 E33.67210
G1 X165.328 Y160.876 E33.78358
G1 X166.419 Y161.168 E33.85144
G1 X167.730 Y159.857 E33.96291
G1 X167.438 Y158.767 E34.03077
G1 X168.245 Y157.959 E34.09946
G1 X168.239 Y156.363 F7800.000
G1 X168.237 Y155.992 E34.12175 F1800.000
G1 X168.160 Y156.069 E34.12832
G1 X168.239 Y156.363 E34.14659
G1 X168.243 Y152.984 F7800.000
G1 X167.497 Y152.784 E34.19306 F1800.000
G1 X166.186 Y154.095 E34.30453
G1 X166.478 Y155.185 E34.37239
G1 X165.167 Y156.496 E34.48387
G1 X164.077 Y156.204 E34.55172
G1 X162.766 Y157.515 E34.66320
G1 X163.058 Y158.605 E34.73106
G1 X161.747 Y159.916 E34.84254
G1 X160.656 Y159.624 E34.91039
G1 X159.345 Y160.935 E35.02187
G1 X159.638 Y162.025 E35.08973
G1 X158.326 Y163.336 E35.20120
G1 X157.236 Y163.044 E35.26906
G1 X155.925 Y164.355 E35.38054
G1 X156.217 Y165.445 E35.44839
G1 X154.906 Y166.756 E35.55987
G1 X153.816 Y166.464 E35.62773
G1 X152.505 Y167.775 E35.73921
G1 X152.629 Y168.238 E35.76799
G1 X155.413 Y168.225 E35.93536
G1 X155.495 Y168.143 E35.94233
G1 X155.203 Y167.053 E36.01018
G1 X156.514 Y165.742 E36.12166
G1 X157.604 Y166.034 E36.18952
G1 X158.915 Y164.723 E36.30099
G1 X158.623 Y163.632 E36.36885
G1 X159.934 Y162.321 E36.48033
G1 X161.024 Y162.614 E36.54818
G1 X162.335 Y161.302 E36.65966
G1 X162.043 Y160.212 E36.72752
G1 X163.354 Y158.901 E36.83900
G1 X164.444 Y159.193 E36.90685
G1 X165.755 Y157.882 E37.01833
G1 X165.463 Y156.792 E37.08619
G1 X166.774 Y155.481 E37.19766
G1 X167.864 Y155.773 E37.26552
G1 X168.235 Y155.402 E37.29707
G1 X168.243 Y152.984 E37.44248
G1 X168.242 Y148.676 F7800.000
G1 X168.242 Y148.089 E37.47779 F1800.000
G1 X167.631 Y148.700 E37.52975
G1 X167.923 Y149.790 E37.59760
G1 X166.612 Y151.101 E37.70908
G1 X165.522 Y150.809 E37.77694
G1 X164.211 Y152.120 E37.88842
G1 X164.503 Y153.210 E37.95627
G1 X163.192 Y154.521 E38.06775
G1 X162.102 Y154.229 E38.13561
G1 X160.791 Y155.540 E38.24708
G1 X161.083 Y156.630 E38.31494
G1 X159.772 Y157.942 E38.42642
G1 X158.682 Y157.649 E38.49427
G1 X157.371 Y158.960 E38.60575
G1 X157.663 Y160.051 E38.67361
G1 X156.352 Y161.362 E38.78509
G1 X155.262 Y161.070 E38.85294
G1 X153.951 Y162.381 E38.96442
G1 X154.243 Y163.471 E39.03228
G1 X152.932 Y164.782 E39.14375
G1 X151.842 Y164.490 E39.21161
G1 X150.531 Y165.801 E39.32309
G1 X150.823 Y166.891 E39.39094
G1 X149.512 Y168.202 E39.50242
G1 X148.419 Y167.912 E39.57037
G1 X149.121 Y168.177 E39.61548
G1 X150.060 Y168.245 E39.67211
G1 X151.119 Y167.187 E39.76210
G1 X152.209 Y167.479 E39.82995
G1 X153.520 Y166.168 E39.94143
G1 X153.228 Y165.078 E40.00929
G1 X154.539 Y163.767 E40.12077
G1 X155.629 Y164.059 E40.18862
G1 X156.940 Y162.748 E40.30010
G1 X156.648 Y161.658 E40.36796
G1 X157.959 Y160.347 E40.47943
G1 X159.049 Y160.639 E40.54729
G1 X160.360 Y159.328 E40.65877
G1 X160.068 Y158.238 E40.72662
G1 X161.379 Y156.927 E40.83810
G1 X162.469 Y157.219 E40.90596
G1 X163.780 Y155.908 E41.01744
G1 X163.488 Y154.818 E41.08529
G1 X164.799 Y153.507 E41.19677
G1 X165.889 Y153.799 E41.26463
G1 X167.201 Y152.488 E41.37610
G1 X166.908 Y151.397 E41.44396
G1 X168.219 Y150.086 E41.55544
G1 X168.253 Y150.095 E41.55753
G1 X168.242 Y148.676 E41.64285
G1 X168.058 Y145.706 F7800.000
G1 X166.968 Y145.414 E41.71070 F1800.000
G1 X165.657 Y146.725 E41.82218
G1 X165.949 Y147.816 E41.89004
G1 X164.638 Y149.127 E42.00152
G1 X163.548 Y148.835 E42.06937
G1 X162.236 Y150.146 E42.18085
G1 X162.529 Y151.236 E42.24871
G1 X161.218 Y152.547 E42.36018
G1 X160.127 Y152.255 E42.42804
G1 X158.816 Y153.566 E42.53952
G1 X159.108 Y154.656 E42.60737
G1 X157.797 Y155.967 E42.71885
